(cycloid_2)
(T1  D=4 CR=0 - ZMIN=-6 - flat end mill)
G90 G94
G17
G21
G28 G91 Z0
G90

(2D Adaptive2)
T1
S12000 M3
G54
M8
G0 X50.665 Y48.221
Z20
Z10
Z2.5
G3 X49.335 Y51.78 Z2.292 I-0.665 J1.78 F100
X50.665 Y48.221 Z2.083 I0.665 J-1.78
X49.335 Y51.78 Z1.875 I-0.665 J1.78
X50.665 Y48.221 Z1.666 I0.665 J-1.78
X49.335 Y51.78 Z1.458 I-0.665 J1.78
X50.665 Y48.221 Z1.249 I0.665 J-1.78
X49.335 Y51.78 Z1.041 I-0.665 J1.78
X50.665 Y48.221 Z0.832 I0.665 J-1.78
X49.335 Y51.78 Z0.624 I-0.665 J1.78
X50.665 Y48.221 Z0.416 I0.665 J-1.78
X49.335 Y51.78 Z0.207 I-0.665 J1.78
X50.665 Y48.221 Z-0.001 I0.665 J-1.78
X49.335 Y51.78 Z-0.21 I-0.665 J1.78
X50.665 Y48.221 Z-0.418 I0.665 J-1.78
X49.335 Y51.78 Z-0.627 I-0.665 J1.78
X50.665 Y48.221 Z-0.835 I0.665 J-1.78
X49.335 Y51.78 Z-1.044 I-0.665 J1.78
X50.665 Y48.221 Z-1.252 I0.665 J-1.78
X49.335 Y51.78 Z-1.46 I-0.665 J1.78
X50.665 Y48.221 Z-1.669 I0.665 J-1.78
X49.335 Y51.78 Z-1.877 I-0.665 J1.78
X50.665 Y48.221 Z-2.086 I0.665 J-1.78
X49.335 Y51.78 Z-2.294 I-0.665 J1.78
X50.665 Y48.221 Z-2.503 I0.665 J-1.78
X49.335 Y51.78 Z-2.711 I-0.665 J1.78
X50.665 Y48.221 Z-2.92 I0.665 J-1.78
X51.9 Y50.001 Z-3 I-0.665 J1.78
X48.1 Y50.001 I-1.9 J0
X51.9 Y50.001 I1.9 J0
G1 X51.901 Y50.051
X51.915 Y50.1
X52.322 Y50.798
X52.465 Y50.952
X52.595 Y51.157
X52.698 Y51.411
X52.76 Y51.712
X52.767 Y52.053
X52.706 Y52.425
X52.565 Y52.816
X52.336 Y53.211
X52.011 Y53.589
X51.589 Y53.931
X51.071 Y54.212
X50.468 Y54.409
X49.797 Y54.499
X49.081 Y54.464
X48.351 Y54.292
X47.638 Y53.979
X46.976 Y53.531
X46.401 Y52.963
X45.936 Y52.302
X45.595 Y51.569
X45.388 Y50.788
X45.319 Y49.983
X45.391 Y49.178
X45.6 Y48.397
X45.941 Y47.664
X46.403 Y47.001
X46.972 Y46.427
X47.631 Y45.96
X48.361 Y45.612
X49.14 Y45.396
X49.944 Y45.317
X50.75 Y45.377
X51.534 Y45.574
X52.272 Y45.904
X52.942 Y46.355
X53.525 Y46.915
X54.003 Y47.567
X54.377 Y48.283
X54.787 Y48.98
X55.142 Y49.706
X55.405 Y50.47
X55.555 Y51.265
X55.581 Y52.072
X55.482 Y52.874
X55.257 Y53.651
X54.913 Y54.382
X54.463 Y55.054
X53.924 Y55.656
X53.306 Y56.177
X52.619 Y56.602
X51.883 Y56.936
X51.111 Y57.175
X50.313 Y57.308
X49.506 Y57.346
X48.7 Y57.29
X47.907 Y57.131
X47.136 Y56.89
X46.4 Y56.557
X45.706 Y56.142
X45.058 Y55.658
X44.475 Y55.099
X43.952 Y54.483
X43.501 Y53.812
X43.129 Y53.095
X42.829 Y52.344
X42.62 Y51.563
X42.494 Y50.765
X42.451 Y49.958
X42.501 Y49.151
X42.631 Y48.353
X42.85 Y47.575
X43.152 Y46.826
X43.526 Y46.109
X43.982 Y45.442
X44.503 Y44.824
X45.087 Y44.265
X45.73 Y43.775
X46.417 Y43.35
X47.149 Y43.008
X47.913 Y42.745
X48.7 Y42.559
X49.503 Y42.467
X50.311 Y42.454
X51.116 Y42.531
X51.907 Y42.696
X52.679 Y42.937
X53.416 Y43.267
X54.116 Y43.671
X54.771 Y44.144
X55.367 Y44.691
X55.907 Y45.292
X56.38 Y45.947
X56.825 Y46.622
X57.234 Y47.319
X57.599 Y48.041
X57.914 Y48.785
X58.161 Y49.554
X58.337 Y50.343
X58.445 Y51.144
X58.468 Y51.952
X58.412 Y52.758
X58.282 Y53.556
X58.064 Y54.335
X57.774 Y55.089
X57.414 Y55.812
X56.98 Y56.494
X56.487 Y57.134
X55.936 Y57.726
X55.328 Y58.259
X54.675 Y58.735
X53.983 Y59.152
X53.254 Y59.5
X52.497 Y59.785
X51.719 Y60.005
X50.924 Y60.15
X50.12 Y60.228
X49.312 Y60.244
X48.506 Y60.185
X47.707 Y60.059
X46.921 Y59.872
X46.153 Y59.621
X45.409 Y59.304
X44.693 Y58.93
X44.006 Y58.505
X43.359 Y58.02
X42.753 Y57.485
X42.188 Y56.907
X41.67 Y56.286
X41.207 Y55.624
X40.796 Y54.928
X40.435 Y54.205
X40.138 Y53.453
X39.901 Y52.681
X39.721 Y51.893
X39.601 Y51.093
X39.549 Y50.287
X39.559 Y49.479
X39.626 Y48.673
X39.759 Y47.876
X39.956 Y47.092
X40.211 Y46.325
X40.519 Y45.578
X40.891 Y44.86
X41.316 Y44.173
X41.791 Y43.519
X42.314 Y42.903
X42.887 Y42.333
X43.501 Y41.807
X44.15 Y41.326
X44.838 Y40.902
X45.557 Y40.533
X46.302 Y40.217
X47.067 Y39.957
X47.852 Y39.764
X48.649 Y39.63
X49.453 Y39.553
X50.261 Y39.542
X51.068 Y39.597
X51.868 Y39.71
X52.658 Y39.881
X53.431 Y40.118
X54.182 Y40.415
X54.911 Y40.765
X55.61 Y41.17
X56.274 Y41.632
X56.901 Y42.142
X57.49 Y42.695
X58.032 Y43.294
X58.536 Y43.926
X59.006 Y44.584
X59.443 Y45.264
X59.847 Y45.964
X60.212 Y46.685
X60.532 Y47.427
X60.804 Y48.188
X61.029 Y48.964
X61.204 Y49.753
X61.318 Y50.554
X61.376 Y51.36
X61.379 Y52.168
X61.324 Y52.974
X61.207 Y53.774
X61.032 Y54.563
X60.803 Y55.338
X60.517 Y56.094
X60.174 Y56.826
X59.781 Y57.532
X59.342 Y58.211
X58.853 Y58.854
X58.318 Y59.46
X57.743 Y60.028
X57.131 Y60.556
X56.482 Y61.038
X55.801 Y61.474
X55.093 Y61.863
X54.361 Y62.206
X53.607 Y62.496
X52.834 Y62.734
X52.048 Y62.92
X51.251 Y63.057
X50.447 Y63.141
X49.64 Y63.17
X48.832 Y63.146
X48.027 Y63.073
X47.228 Y62.95
X46.439 Y62.773
X45.664 Y62.547
X44.903 Y62.273
X44.161 Y61.954
X43.44 Y61.587
X42.745 Y61.176
X42.076 Y60.722
X41.435 Y60.229
X40.826 Y59.697
X40.253 Y59.128
X39.715 Y58.524
X39.215 Y57.89
X38.753 Y57.226
X38.334 Y56.535
X37.959 Y55.819
X37.628 Y55.082
X37.34 Y54.327
X37.1 Y53.555
X36.908 Y52.77
X36.764 Y51.975
X36.668 Y51.172
X36.619 Y50.365
X36.62 Y49.557
X36.672 Y48.751
X36.772 Y47.949
X36.918 Y47.154
X37.113 Y46.369
X37.356 Y45.598
X37.645 Y44.843
X37.978 Y44.107
X38.354 Y43.392
X38.774 Y42.701
X39.236 Y42.038
X39.736 Y41.403
X40.273 Y40.799
X40.845 Y40.228
X41.452 Y39.694
X42.089 Y39.197
X42.756 Y38.74
X43.448 Y38.322
X44.164 Y37.948
X44.902 Y37.619
X45.659 Y37.334
X46.431 Y37.095
X47.215 Y36.902
X48.011 Y36.758
X48.813 Y36.663
X49.62 Y36.616
X50.429
X51.235 Y36.667
X52.037 Y36.766
X52.832 Y36.913
X53.617 Y37.108
X54.388 Y37.348
X55.143 Y37.637
X55.879 Y37.97
X56.594 Y38.347
X57.286 Y38.765
X57.951 Y39.225
X58.586 Y39.725
X59.19 Y40.261
X59.763 Y40.832
X60.304 Y41.432
X60.815 Y42.059
X61.294 Y42.709
X61.447 Y42.936
X61.892 Y43.663
X61.99 Y43.847
X62.215 Y44.342
X62.695 Y45.5
X62.761 Y45.684
X62.929 Y46.235
X63.193 Y47.337
X63.235 Y47.52
X63.336 Y48.071
X63.355 Y48.255
X63.485 Y49.908
Y50.092
X63.355 Y51.745
X63.336 Y51.929
X63.235 Y52.48
X63.194 Y52.663
X62.929 Y53.765
X62.761 Y54.316
X62.695 Y54.5
X62.215 Y55.659
X61.99 Y56.153
X61.892 Y56.337
X61.217 Y57.439
X61.113 Y57.6
X60.707 Y58.174
X60.194 Y58.775
X59.643 Y59.42
X59.46 Y59.605
X59.42 Y59.643
X58.345 Y60.562
X58.174 Y60.707
X57.6 Y61.113
X57.439 Y61.217
X56.337 Y61.892
X56.153 Y61.99
X55.659 Y62.215
X54.5 Y62.695
X54.316 Y62.761
X53.765 Y62.929
X52.663 Y63.194
X52.48 Y63.235
X51.929 Y63.336
X51.745 Y63.355
X50.092 Y63.485
X49.908
X48.255 Y63.355
X48.071 Y63.336
X47.52 Y63.235
X47.337 Y63.194
X46.235 Y62.929
X45.684 Y62.761
X45.5 Y62.695
X44.341 Y62.215
X43.847 Y61.99
X43.663 Y61.892
X42.561 Y61.217
X42.4 Y61.113
X41.826 Y60.707
X41.225 Y60.194
X40.58 Y59.643
X40.395 Y59.46
X40.357 Y59.42
X39.438 Y58.345
X39.293 Y58.174
X38.887 Y57.6
X38.783 Y57.439
X38.108 Y56.337
X38.01 Y56.153
X37.785 Y55.659
X37.305 Y54.5
X37.239 Y54.316
X37.071 Y53.765
X36.806 Y52.663
X36.765 Y52.48
X36.664 Y51.929
X36.645 Y51.745
X36.515 Y50.092
Y49.908
X36.645 Y48.255
X36.664 Y48.071
X36.765 Y47.52
X36.807 Y47.337
X37.071 Y46.235
X37.239 Y45.684
X37.305 Y45.5
X37.785 Y44.342
X38.01 Y43.847
X38.108 Y43.663
X38.783 Y42.561
X38.887 Y42.4
X39.293 Y41.826
X39.806 Y41.225
X40.357 Y40.58
X40.54 Y40.396
X40.58 Y40.357
X41.655 Y39.438
X41.826 Y39.293
X42.401 Y38.887
X42.561 Y38.784
X43.663 Y38.108
X43.847 Y38.011
X44.342 Y37.785
X45.5 Y37.305
X45.684 Y37.239
X46.235 Y37.072
X47.337 Y36.807
X47.52 Y36.765
X48.071 Y36.665
X48.255 Y36.645
X49.908 Y36.515
X50.092
X51.745 Y36.645
X51.929 Y36.665
X52.48 Y36.765
X52.663 Y36.807
X53.765 Y37.072
X54.316 Y37.239
X54.5 Y37.305
X55.658 Y37.785
X56.153 Y38.011
X56.337 Y38.108
X57.439 Y38.784
X57.6 Y38.887
X58.174 Y39.293
X58.775 Y39.806
X59.42 Y40.357
X59.604 Y40.54
X59.643 Y40.58
X60.562 Y41.655
X60.707 Y41.826
X61.113 Y42.4
X61.217 Y42.561
X61.447 Y42.936
G3 X61.459 Y43.307 I-0.348 J0.197
G1 X61.421 Y43.354 Z-2.995
X61.384 Y43.401 Z-2.981
X61.349 Y43.445 Z-2.958
X61.301 Y43.469 Z-2.926
X61.258 Y43.49 Z-2.885
X61.221 Y43.508 Z-2.837
X61.191 Y43.522 Z-2.783
X61.167 Y43.527 Z-2.725
X61.152 Y43.529 Z-2.663
X61.147 Y43.53 Z-2.6
G0 Z10
X50.665 Y48.221
Z-0.5
G3 X49.335 Y51.78 Z-0.708 I-0.665 J1.78 F100
X50.665 Y48.221 Z-0.917 I0.665 J-1.78
X49.335 Y51.78 Z-1.125 I-0.665 J1.78
X50.665 Y48.221 Z-1.334 I0.665 J-1.78
X49.335 Y51.78 Z-1.542 I-0.665 J1.78
X50.665 Y48.221 Z-1.751 I0.665 J-1.78
X49.335 Y51.78 Z-1.959 I-0.665 J1.78
X50.665 Y48.221 Z-2.168 I0.665 J-1.78
X49.335 Y51.78 Z-2.376 I-0.665 J1.78
X50.665 Y48.221 Z-2.584 I0.665 J-1.78
X49.335 Y51.78 Z-2.793 I-0.665 J1.78
X50.665 Y48.221 Z-3.001 I0.665 J-1.78
X49.335 Y51.78 Z-3.21 I-0.665 J1.78
X50.665 Y48.221 Z-3.418 I0.665 J-1.78
X49.335 Y51.78 Z-3.627 I-0.665 J1.78
X50.665 Y48.221 Z-3.835 I0.665 J-1.78
X49.335 Y51.78 Z-4.044 I-0.665 J1.78
X50.665 Y48.221 Z-4.252 I0.665 J-1.78
X49.335 Y51.78 Z-4.46 I-0.665 J1.78
X50.665 Y48.221 Z-4.669 I0.665 J-1.78
X49.335 Y51.78 Z-4.877 I-0.665 J1.78
X50.665 Y48.221 Z-5.086 I0.665 J-1.78
X49.335 Y51.78 Z-5.294 I-0.665 J1.78
X50.665 Y48.221 Z-5.503 I0.665 J-1.78
X49.335 Y51.78 Z-5.711 I-0.665 J1.78
X50.665 Y48.221 Z-5.92 I0.665 J-1.78
X51.9 Y50.001 Z-6 I-0.665 J1.78
X48.1 Y50.001 I-1.9 J0
X51.9 Y50.001 I1.9 J0
G1 X51.901 Y50.051
X51.915 Y50.1
X52.322 Y50.798
X52.465 Y50.952
X52.595 Y51.157
X52.698 Y51.411
X52.76 Y51.712
X52.767 Y52.053
X52.706 Y52.425
X52.565 Y52.816
X52.336 Y53.211
X52.011 Y53.589
X51.589 Y53.931
X51.071 Y54.212
X50.468 Y54.409
X49.797 Y54.499
X49.081 Y54.464
X48.351 Y54.292
X47.638 Y53.979
X46.976 Y53.531
X46.401 Y52.963
X45.936 Y52.302
X45.595 Y51.569
X45.388 Y50.788
X45.319 Y49.983
X45.391 Y49.178
X45.6 Y48.397
X45.941 Y47.664
X46.403 Y47.001
X46.972 Y46.427
X47.631 Y45.96
X48.361 Y45.612
X49.14 Y45.396
X49.944 Y45.317
X50.75 Y45.377
X51.534 Y45.574
X52.272 Y45.904
X52.942 Y46.355
X53.525 Y46.915
X54.003 Y47.567
X54.377 Y48.283
X54.787 Y48.98
X55.142 Y49.706
X55.405 Y50.47
X55.555 Y51.265
X55.581 Y52.072
X55.482 Y52.874
X55.257 Y53.651
X54.913 Y54.382
X54.463 Y55.054
X53.924 Y55.656
X53.306 Y56.177
X52.619 Y56.602
X51.883 Y56.936
X51.111 Y57.175
X50.313 Y57.308
X49.506 Y57.346
X48.7 Y57.29
X47.907 Y57.131
X47.136 Y56.89
X46.4 Y56.557
X45.706 Y56.142
X45.058 Y55.658
X44.475 Y55.099
X43.952 Y54.483
X43.501 Y53.812
X43.129 Y53.095
X42.829 Y52.344
X42.62 Y51.563
X42.494 Y50.765
X42.451 Y49.958
X42.501 Y49.151
X42.631 Y48.353
X42.85 Y47.575
X43.152 Y46.826
X43.526 Y46.109
X43.982 Y45.442
X44.503 Y44.824
X45.087 Y44.265
X45.73 Y43.775
X46.417 Y43.35
X47.149 Y43.008
X47.913 Y42.745
X48.7 Y42.559
X49.503 Y42.467
X50.311 Y42.454
X51.116 Y42.531
X51.907 Y42.696
X52.679 Y42.937
X53.416 Y43.267
X54.116 Y43.671
X54.771 Y44.144
X55.367 Y44.691
X55.907 Y45.292
X56.38 Y45.947
X56.825 Y46.622
X57.234 Y47.319
X57.599 Y48.041
X57.914 Y48.785
X58.161 Y49.554
X58.337 Y50.343
X58.445 Y51.144
X58.468 Y51.952
X58.412 Y52.758
X58.282 Y53.556
X58.064 Y54.335
X57.774 Y55.089
X57.414 Y55.812
X56.98 Y56.494
X56.487 Y57.134
X55.936 Y57.726
X55.328 Y58.259
X54.675 Y58.735
X53.983 Y59.152
X53.254 Y59.5
X52.497 Y59.785
X51.719 Y60.005
X50.924 Y60.15
X50.12 Y60.228
X49.312 Y60.244
X48.506 Y60.185
X47.707 Y60.059
X46.921 Y59.872
X46.153 Y59.621
X45.409 Y59.304
X44.693 Y58.93
X44.006 Y58.505
X43.359 Y58.02
X42.753 Y57.485
X42.188 Y56.907
X41.67 Y56.286
X41.207 Y55.624
X40.796 Y54.928
X40.435 Y54.205
X40.138 Y53.453
X39.901 Y52.681
X39.721 Y51.893
X39.601 Y51.093
X39.549 Y50.287
X39.559 Y49.479
X39.626 Y48.673
X39.759 Y47.876
X39.956 Y47.092
X40.211 Y46.325
X40.519 Y45.578
X40.891 Y44.86
X41.316 Y44.173
X41.791 Y43.519
X42.314 Y42.903
X42.887 Y42.333
X43.501 Y41.807
X44.15 Y41.326
X44.838 Y40.902
X45.557 Y40.533
X46.302 Y40.217
X47.067 Y39.957
X47.852 Y39.764
X48.649 Y39.63
X49.453 Y39.553
X50.261 Y39.542
X51.068 Y39.597
X51.868 Y39.71
X52.658 Y39.881
X53.431 Y40.118
X54.182 Y40.415
X54.911 Y40.765
X55.61 Y41.17
X56.274 Y41.632
X56.901 Y42.142
X57.49 Y42.695
X58.032 Y43.294
X58.536 Y43.926
X59.006 Y44.584
X59.443 Y45.264
X59.847 Y45.964
X60.212 Y46.685
X60.532 Y47.427
X60.804 Y48.188
X61.029 Y48.964
X61.204 Y49.753
X61.318 Y50.554
X61.376 Y51.36
X61.379 Y52.168
X61.324 Y52.974
X61.207 Y53.774
X61.032 Y54.563
X60.803 Y55.338
X60.517 Y56.094
X60.174 Y56.826
X59.781 Y57.532
X59.342 Y58.211
X58.853 Y58.854
X58.318 Y59.46
X57.743 Y60.028
X57.131 Y60.556
X56.482 Y61.038
X55.801 Y61.474
X55.093 Y61.863
X54.361 Y62.206
X53.607 Y62.496
X52.834 Y62.734
X52.048 Y62.92
X51.251 Y63.057
X50.447 Y63.141
X49.64 Y63.17
X48.832 Y63.146
X48.027 Y63.073
X47.228 Y62.95
X46.439 Y62.773
X45.664 Y62.547
X44.903 Y62.273
X44.161 Y61.954
X43.44 Y61.587
X42.745 Y61.176
X42.076 Y60.722
X41.435 Y60.229
X40.826 Y59.697
X40.253 Y59.128
X39.715 Y58.524
X39.215 Y57.89
X38.753 Y57.226
X38.334 Y56.535
X37.959 Y55.819
X37.628 Y55.082
X37.34 Y54.327
X37.1 Y53.555
X36.908 Y52.77
X36.764 Y51.975
X36.668 Y51.172
X36.619 Y50.365
X36.62 Y49.557
X36.672 Y48.751
X36.772 Y47.949
X36.918 Y47.154
X37.113 Y46.369
X37.356 Y45.598
X37.645 Y44.843
X37.978 Y44.107
X38.354 Y43.392
X38.774 Y42.701
X39.236 Y42.038
X39.736 Y41.403
X40.273 Y40.799
X40.845 Y40.228
X41.452 Y39.694
X42.089 Y39.197
X42.756 Y38.74
X43.448 Y38.322
X44.164 Y37.948
X44.902 Y37.619
X45.659 Y37.334
X46.431 Y37.095
X47.215 Y36.902
X48.011 Y36.758
X48.813 Y36.663
X49.62 Y36.616
X50.429
X51.235 Y36.667
X52.037 Y36.766
X52.832 Y36.913
X53.617 Y37.108
X54.388 Y37.348
X55.143 Y37.637
X55.879 Y37.97
X56.594 Y38.347
X57.286 Y38.765
X57.951 Y39.225
X58.586 Y39.725
X59.19 Y40.261
X59.763 Y40.832
X60.304 Y41.432
X60.815 Y42.059
X61.294 Y42.709
X61.447 Y42.936
X61.892 Y43.663
X61.99 Y43.847
X62.215 Y44.342
X62.695 Y45.5
X62.761 Y45.684
X62.929 Y46.235
X63.193 Y47.337
X63.235 Y47.52
X63.336 Y48.071
X63.355 Y48.255
X63.485 Y49.908
Y50.092
X63.355 Y51.745
X63.336 Y51.929
X63.235 Y52.48
X63.194 Y52.663
X62.929 Y53.765
X62.761 Y54.316
X62.695 Y54.5
X62.215 Y55.659
X61.99 Y56.153
X61.892 Y56.337
X61.217 Y57.439
X61.113 Y57.6
X60.707 Y58.174
X60.194 Y58.775
X59.643 Y59.42
X59.46 Y59.605
X59.42 Y59.643
X58.345 Y60.562
X58.174 Y60.707
X57.6 Y61.113
X57.439 Y61.217
X56.337 Y61.892
X56.153 Y61.99
X55.659 Y62.215
X54.5 Y62.695
X54.316 Y62.761
X53.765 Y62.929
X52.663 Y63.194
X52.48 Y63.235
X51.929 Y63.336
X51.745 Y63.355
X50.092 Y63.485
X49.908
X48.255 Y63.355
X48.071 Y63.336
X47.52 Y63.235
X47.337 Y63.194
X46.235 Y62.929
X45.684 Y62.761
X45.5 Y62.695
X44.341 Y62.215
X43.847 Y61.99
X43.663 Y61.892
X42.561 Y61.217
X42.4 Y61.113
X41.826 Y60.707
X41.225 Y60.194
X40.58 Y59.643
X40.395 Y59.46
X40.357 Y59.42
X39.438 Y58.345
X39.293 Y58.174
X38.887 Y57.6
X38.783 Y57.439
X38.108 Y56.337
X38.01 Y56.153
X37.785 Y55.659
X37.305 Y54.5
X37.239 Y54.316
X37.071 Y53.765
X36.806 Y52.663
X36.765 Y52.48
X36.664 Y51.929
X36.645 Y51.745
X36.515 Y50.092
Y49.908
X36.645 Y48.255
X36.664 Y48.071
X36.765 Y47.52
X36.807 Y47.337
X37.071 Y46.235
X37.239 Y45.684
X37.305 Y45.5
X37.785 Y44.342
X38.01 Y43.847
X38.108 Y43.663
X38.783 Y42.561
X38.887 Y42.4
X39.293 Y41.826
X39.806 Y41.225
X40.357 Y40.58
X40.54 Y40.396
X40.58 Y40.357
X41.655 Y39.438
X41.826 Y39.293
X42.401 Y38.887
X42.561 Y38.784
X43.663 Y38.108
X43.847 Y38.011
X44.342 Y37.785
X45.5 Y37.305
X45.684 Y37.239
X46.235 Y37.072
X47.337 Y36.807
X47.52 Y36.765
X48.071 Y36.665
X48.255 Y36.645
X49.908 Y36.515
X50.092
X51.745 Y36.645
X51.929 Y36.665
X52.48 Y36.765
X52.663 Y36.807
X53.765 Y37.072
X54.316 Y37.239
X54.5 Y37.305
X55.658 Y37.785
X56.153 Y38.011
X56.337 Y38.108
X57.439 Y38.784
X57.6 Y38.887
X58.174 Y39.293
X58.775 Y39.806
X59.42 Y40.357
X59.604 Y40.54
X59.643 Y40.58
X60.562 Y41.655
X60.707 Y41.826
X61.113 Y42.4
X61.217 Y42.561
X61.447 Y42.936
G3 X61.147 Y43.53 I-0.348 J0.197
G1 X61.07 Y43.54 Z-5.992
X60.995 Y43.549 Z-5.97
X60.927 Y43.557 Z-5.933
X60.866 Y43.565 Z-5.883
X60.817 Y43.571 Z-5.822
X60.78 Y43.575 Z-5.753
X60.758 Y43.578 Z-5.678
X60.75 Y43.579 Z-5.6
G0 Z20

(2D Contour1)
X62.8 Y49.6
Z20
Z5
G1 Z4 F100
Z-2.6
G18 G2 X63.2 Z-3 I0.4 K0
G1 X63.6
G17 G3 X64 Y50 I0 J0.4
X36 Y50 I-14 J0
X64 Y50 I14 J0
X63.6 Y50.4 I-0.4 J0
G1 X63.2
G18 G3 X62.8 Z-2.6 I0 K0.4
G0 Z10
Y49.6
Z5
G1 Z1 F100
Z-5.6
G2 X63.2 Z-6 I0.4 K0
G1 X63.6
G17 G3 X64 Y50 I0 J0.4
X36 Y50 I-14 J0
X64 Y50 I14 J0
X63.6 Y50.4 I-0.4 J0
G1 X63.2
G18 G3 X62.8 Z-5.6 I0 K0.4
G0 Z20
G17

(2D Adaptive3)
G0 X27.568 Y57.788
Z15
Z5
Z2.5
G3 X26.237 Y61.347 Z2.292 I-0.665 J1.78 F100
X27.568 Y57.788 Z2.083 I0.665 J-1.78
X26.237 Y61.347 Z1.875 I-0.665 J1.78
X27.568 Y57.788 Z1.666 I0.665 J-1.78
X26.237 Y61.347 Z1.458 I-0.665 J1.78
X27.568 Y57.788 Z1.249 I0.665 J-1.78
X26.237 Y61.347 Z1.041 I-0.665 J1.78
X27.568 Y57.788 Z0.832 I0.665 J-1.78
X26.237 Y61.347 Z0.624 I-0.665 J1.78
X27.568 Y57.788 Z0.416 I0.665 J-1.78
X26.237 Y61.347 Z0.207 I-0.665 J1.78
X27.568 Y57.788 Z-0.001 I0.665 J-1.78
X26.237 Y61.347 Z-0.21 I-0.665 J1.78
X27.568 Y57.788 Z-0.418 I0.665 J-1.78
X26.237 Y61.347 Z-0.627 I-0.665 J1.78
X27.568 Y57.788 Z-0.835 I0.665 J-1.78
X26.237 Y61.347 Z-1.044 I-0.665 J1.78
X27.568 Y57.788 Z-1.252 I0.665 J-1.78
X26.237 Y61.347 Z-1.46 I-0.665 J1.78
X27.568 Y57.788 Z-1.669 I0.665 J-1.78
X26.237 Y61.347 Z-1.877 I-0.665 J1.78
X27.568 Y57.788 Z-2.086 I0.665 J-1.78
X26.237 Y61.347 Z-2.294 I-0.665 J1.78
X27.568 Y57.788 Z-2.503 I0.665 J-1.78
X26.237 Y61.347 Z-2.711 I-0.665 J1.78
X27.568 Y57.788 Z-2.92 I0.665 J-1.78
X28.803 Y59.567 Z-3 I-0.665 J1.78
X25.003 Y59.567 I-1.9 J0
X28.803 Y59.567 I1.9 J0
G1 X28.805 Y59.663
X28.839 Y59.725
X28.888 Y59.85
X28.902 Y59.984
X28.882 Y60.117
X28.805 Y60.378
X28.785 Y60.429
X28.705 Y60.562
X28.587 Y60.745
X28.462 Y60.929
X28.418 Y60.972
X28.234 Y61.131
X28.05 Y61.288
X27.996 Y61.324
X27.953 Y61.345
X27.657 Y61.48
X27.499 Y61.548
X27.453 Y61.561
X27.407 Y61.569
X26.948 Y61.635
X26.902 Y61.637
X26.856 Y61.634
X26.581 Y61.595
X26.397 Y61.569
X26.351 Y61.561
X26.305 Y61.549
X26.213 Y61.51
X25.846 Y61.342
X25.806 Y61.321
X25.766 Y61.296
X25.662 Y61.209
X25.479 Y61.05
X25.345 Y60.929
X25.317 Y60.896
X25.295 Y60.863
X25.101 Y60.562
X25.043 Y60.47
X25.019 Y60.424
X25.001 Y60.378
X24.867 Y59.919
X24.856 Y59.873
X24.851 Y59.827
X24.85 Y59.46
X24.854 Y59.276
X24.903 Y59.092
X24.957 Y58.908
X25.014 Y58.725
X25.033 Y58.683
X25.058 Y58.641
X25.295 Y58.272
X25.33 Y58.223
X25.376 Y58.174
X25.741 Y57.858
X25.78 Y57.829
X25.82 Y57.806
X25.846 Y57.793
X26.219 Y57.623
X26.308 Y57.585
X26.353 Y57.573
X26.397 Y57.566
X26.856 Y57.5
X26.902 Y57.498
X26.948 Y57.5
X27.407 Y57.566
X27.453 Y57.573
X27.499 Y57.585
X27.587 Y57.623
X27.989 Y57.806
X28.019 Y57.824
X28.05 Y57.846
X28.43 Y58.174
X28.474 Y58.22
X28.507 Y58.266
X28.684 Y58.541
X28.785 Y58.708
X28.792 Y58.725
X28.849 Y58.908
X28.903 Y59.092
X28.952 Y59.276
X28.956 Y59.46
X28.955 Y59.827
X28.95 Y59.873
X28.939 Y59.919
X28.882 Y60.117
G3 X28.615 Y60.375 I-0.38 J-0.126
G1 X28.558 Y60.383 Z-2.996
X28.502 Y60.391 Z-2.983
X28.439 Y60.377 Z-2.957
X28.381 Y60.363 Z-2.92
X28.33 Y60.352 Z-2.873
X28.292 Y60.327 Z-2.814
X28.263 Y60.309 Z-2.747
X28.246 Y60.297 Z-2.675
X28.24 Y60.293 Z-2.6
G0 Z5
X41.099 Y25.123
Z2.5
G3 X39.768 Y28.683 Z2.292 I-0.665 J1.78 F100
X41.099 Y25.123 Z2.083 I0.665 J-1.78
X39.768 Y28.683 Z1.875 I-0.665 J1.78
X41.099 Y25.123 Z1.666 I0.665 J-1.78
X39.768 Y28.683 Z1.458 I-0.665 J1.78
X41.099 Y25.123 Z1.249 I0.665 J-1.78
X39.768 Y28.683 Z1.041 I-0.665 J1.78
X41.099 Y25.123 Z0.832 I0.665 J-1.78
X39.768 Y28.683 Z0.624 I-0.665 J1.78
X41.099 Y25.123 Z0.416 I0.665 J-1.78
X39.768 Y28.683 Z0.207 I-0.665 J1.78
X41.099 Y25.123 Z-0.001 I0.665 J-1.78
X39.768 Y28.683 Z-0.21 I-0.665 J1.78
X41.099 Y25.123 Z-0.418 I0.665 J-1.78
X39.768 Y28.683 Z-0.627 I-0.665 J1.78
X41.099 Y25.123 Z-0.835 I0.665 J-1.78
X39.768 Y28.683 Z-1.044 I-0.665 J1.78
X41.099 Y25.123 Z-1.252 I0.665 J-1.78
X39.768 Y28.683 Z-1.46 I-0.665 J1.78
X41.099 Y25.123 Z-1.669 I0.665 J-1.78
X39.768 Y28.683 Z-1.877 I-0.665 J1.78
X41.099 Y25.123 Z-2.086 I0.665 J-1.78
X39.768 Y28.683 Z-2.294 I-0.665 J1.78
X41.099 Y25.123 Z-2.503 I0.665 J-1.78
X39.768 Y28.683 Z-2.711 I-0.665 J1.78
X41.099 Y25.123 Z-2.92 I0.665 J-1.78
X42.333 Y26.903 Z-3 I-0.665 J1.78
X38.533 Y26.903 I-1.9 J0
X42.333 Y26.903 I1.9 J0
G1 X42.335 Y26.998
X42.369 Y27.06
X42.418 Y27.186
X42.432 Y27.319
X42.412 Y27.452
X42.33 Y27.729
X42.31 Y27.775
X42.254 Y27.867
X42.017 Y28.234
X42.01 Y28.244
X41.964 Y28.293
X41.609 Y28.601
X41.534 Y28.654
X41.459 Y28.692
X41.092 Y28.86
X41.046 Y28.88
X41 Y28.894
X40.908 Y28.909
X40.494 Y28.969
X40.432 Y28.973
X40.371 Y28.969
X39.898 Y28.9
X39.852 Y28.889
X39.806 Y28.873
X39.438 Y28.706
X39.348 Y28.664
X39.303 Y28.636
X39.255 Y28.599
X39.045 Y28.418
X38.887 Y28.279
X38.85 Y28.234
X38.704 Y28.01
X38.611 Y27.867
X38.556 Y27.775
X38.52 Y27.676
X38.414 Y27.316
X38.389 Y27.224
X38.382 Y27.178
X38.38 Y27.132
Y26.673
X38.382 Y26.627
X38.389 Y26.581
X38.442 Y26.397
X38.52 Y26.13
X38.557 Y26.03
X38.672 Y25.846
X38.833 Y25.595
X38.887 Y25.528
X38.942 Y25.479
X39.255 Y25.207
X39.295 Y25.176
X39.334 Y25.15
X39.438 Y25.1
X39.806 Y24.933
X39.821 Y24.928
X39.905 Y24.905
X40.357 Y24.84
X40.403 Y24.835
X40.449 Y24.834
X40.54 Y24.844
X40.978 Y24.908
X41.013 Y24.916
X41.048 Y24.928
X41.092 Y24.947
X41.459 Y25.115
X41.551 Y25.161
X41.643 Y25.235
X41.967 Y25.516
X42.01 Y25.563
X42.076 Y25.662
X42.194 Y25.846
X42.309 Y26.03
X42.37 Y26.213
X42.424 Y26.397
X42.476 Y26.581
X42.484 Y26.627
X42.486 Y26.673
Y27.132
X42.484 Y27.178
X42.477 Y27.224
X42.452 Y27.316
X42.412 Y27.452
G3 X42.145 Y27.71 I-0.38 J-0.126
G1 X42.088 Y27.718 Z-2.996
X42.032 Y27.726 Z-2.983
X41.969 Y27.712 Z-2.957
X41.911 Y27.699 Z-2.92
X41.86 Y27.687 Z-2.873
X41.822 Y27.662 Z-2.814
X41.794 Y27.644 Z-2.747
X41.776 Y27.632 Z-2.675
X41.77 Y27.629 Z-2.6
G0 Z5
X60.232 Y71.317
Z2.5
G3 X58.902 Y74.877 Z2.292 I-0.665 J1.78 F100
X60.232 Y71.317 Z2.083 I0.665 J-1.78
X58.902 Y74.877 Z1.875 I-0.665 J1.78
X60.232 Y71.317 Z1.666 I0.665 J-1.78
X58.902 Y74.877 Z1.458 I-0.665 J1.78
X60.232 Y71.317 Z1.249 I0.665 J-1.78
X58.902 Y74.877 Z1.041 I-0.665 J1.78
X60.232 Y71.317 Z0.832 I0.665 J-1.78
X58.902 Y74.877 Z0.624 I-0.665 J1.78
X60.232 Y71.317 Z0.416 I0.665 J-1.78
X58.902 Y74.877 Z0.207 I-0.665 J1.78
X60.232 Y71.317 Z-0.001 I0.665 J-1.78
X58.902 Y74.877 Z-0.21 I-0.665 J1.78
X60.232 Y71.317 Z-0.418 I0.665 J-1.78
X58.902 Y74.877 Z-0.627 I-0.665 J1.78
X60.232 Y71.317 Z-0.835 I0.665 J-1.78
X58.902 Y74.877 Z-1.044 I-0.665 J1.78
X60.232 Y71.317 Z-1.252 I0.665 J-1.78
X58.902 Y74.877 Z-1.46 I-0.665 J1.78
X60.232 Y71.317 Z-1.669 I0.665 J-1.78
X58.902 Y74.877 Z-1.877 I-0.665 J1.78
X60.232 Y71.317 Z-2.086 I0.665 J-1.78
X58.902 Y74.877 Z-2.294 I-0.665 J1.78
X60.232 Y71.317 Z-2.503 I0.665 J-1.78
X58.902 Y74.877 Z-2.711 I-0.665 J1.78
X60.232 Y71.317 Z-2.92 I0.665 J-1.78
X61.467 Y73.097 Z-3 I-0.665 J1.78
X57.667 Y73.097 I-1.9 J0
X61.467 Y73.097 I1.9 J0
G1 X61.469 Y73.192
X61.503 Y73.254
X61.552 Y73.38
X61.566 Y73.513
X61.546 Y73.646
X61.48 Y73.87
X61.443 Y73.97
X61.329 Y74.154
X61.167 Y74.405
X61.113 Y74.472
X61.059 Y74.521
X60.745 Y74.793
X60.706 Y74.824
X60.666 Y74.85
X60.562 Y74.9
X60.194 Y75.067
X60.181 Y75.072
X60.096 Y75.095
X59.643 Y75.161
X59.597 Y75.166
X59.551
X59.46 Y75.156
X59.022 Y75.093
X58.986 Y75.084
X58.951 Y75.072
X58.908 Y75.054
X58.541 Y74.886
X58.449 Y74.84
X58.357 Y74.766
X58.033 Y74.484
X57.99 Y74.437
X57.924 Y74.338
X57.806 Y74.154
X57.691 Y73.97
X57.63 Y73.787
X57.576 Y73.603
X57.524 Y73.419
X57.516 Y73.373
X57.514 Y73.327
Y72.868
X57.516 Y72.822
X57.523 Y72.776
X57.548 Y72.684
X57.67 Y72.271
X57.69 Y72.225
X57.746 Y72.133
X57.983 Y71.766
X57.99 Y71.757
X58.036 Y71.707
X58.392 Y71.399
X58.467 Y71.346
X58.541 Y71.309
X58.908 Y71.141
X58.954 Y71.121
X59 Y71.107
X59.092 Y71.091
X59.511 Y71.031
X59.568 Y71.028
X59.625 Y71.031
X60.102 Y71.1
X60.148 Y71.112
X60.194 Y71.127
X60.562 Y71.294
X60.652 Y71.336
X60.697 Y71.364
X60.745 Y71.401
X60.954 Y71.582
X61.113 Y71.722
X61.15 Y71.766
X61.296 Y71.99
X61.388 Y72.133
X61.444 Y72.225
X61.48 Y72.324
X61.586 Y72.684
X61.611 Y72.776
X61.618 Y72.822
X61.62 Y72.868
Y73.327
X61.618 Y73.373
X61.611 Y73.419
X61.546 Y73.646
G3 X61.279 Y73.904 I-0.38 J-0.126
G1 X61.222 Y73.912 Z-2.996
X61.166 Y73.92 Z-2.983
X61.103 Y73.906 Z-2.957
X61.045 Y73.893 Z-2.92
X60.994 Y73.881 Z-2.873
X60.956 Y73.856 Z-2.814
X60.928 Y73.838 Z-2.747
X60.91 Y73.827 Z-2.675
X60.904 Y73.823 Z-2.6
G0 Z5
X73.762 Y38.653
Z2.5
G3 X72.432 Y42.213 Z2.292 I-0.665 J1.78 F100
X73.762 Y38.653 Z2.083 I0.665 J-1.78
X72.432 Y42.213 Z1.875 I-0.665 J1.78
X73.762 Y38.653 Z1.666 I0.665 J-1.78
X72.432 Y42.213 Z1.458 I-0.665 J1.78
X73.762 Y38.653 Z1.249 I0.665 J-1.78
X72.432 Y42.213 Z1.041 I-0.665 J1.78
X73.762 Y38.653 Z0.832 I0.665 J-1.78
X72.432 Y42.213 Z0.624 I-0.665 J1.78
X73.762 Y38.653 Z0.416 I0.665 J-1.78
X72.432 Y42.213 Z0.207 I-0.665 J1.78
X73.762 Y38.653 Z-0.001 I0.665 J-1.78
X72.432 Y42.213 Z-0.21 I-0.665 J1.78
X73.762 Y38.653 Z-0.418 I0.665 J-1.78
X72.432 Y42.213 Z-0.627 I-0.665 J1.78
X73.762 Y38.653 Z-0.835 I0.665 J-1.78
X72.432 Y42.213 Z-1.044 I-0.665 J1.78
X73.762 Y38.653 Z-1.252 I0.665 J-1.78
X72.432 Y42.213 Z-1.46 I-0.665 J1.78
X73.762 Y38.653 Z-1.669 I0.665 J-1.78
X72.432 Y42.213 Z-1.877 I-0.665 J1.78
X73.762 Y38.653 Z-2.086 I0.665 J-1.78
X72.432 Y42.213 Z-2.294 I-0.665 J1.78
X73.762 Y38.653 Z-2.503 I0.665 J-1.78
X72.432 Y42.213 Z-2.711 I-0.665 J1.78
X73.762 Y38.653 Z-2.92 I0.665 J-1.78
X74.997 Y40.433 Z-3 I-0.665 J1.78
X71.197 Y40.433 I-1.9 J0
X74.997 Y40.433 I1.9 J0
G1 X74.999 Y40.528
X75.032 Y40.589
X75.081 Y40.716
X75.096 Y40.851
X75.075 Y40.985
X75.044 Y41.092
X74.986 Y41.275
X74.968 Y41.317
X74.943 Y41.359
X74.705 Y41.729
X74.67 Y41.778
X74.625 Y41.826
X74.26 Y42.143
X74.221 Y42.171
X74.182 Y42.194
X74.154 Y42.208
X73.783 Y42.377
X73.693 Y42.415
X73.603 Y42.435
X73.144 Y42.5
X73.098 Y42.503
X73.052 Y42.501
X72.593 Y42.435
X72.547 Y42.428
X72.501 Y42.415
X72.411 Y42.377
X72.01 Y42.194
X71.98 Y42.176
X71.95 Y42.155
X71.57 Y41.826
X71.525 Y41.78
X71.493 Y41.734
X71.316 Y41.459
X71.215 Y41.293
X71.208 Y41.275
X71.15 Y41.092
X71.097 Y40.908
X71.048 Y40.724
X71.044 Y40.54
X71.045 Y40.173
X71.05 Y40.127
X71.061 Y40.081
X71.195 Y39.622
X71.215 Y39.572
X71.296 Y39.438
X71.414 Y39.255
X71.538 Y39.071
X71.582 Y39.029
X71.766 Y38.87
X71.95 Y38.712
X71.962 Y38.704
X72.133 Y38.616
X72.344 Y38.52
X72.501 Y38.452
X72.547 Y38.439
X72.593 Y38.431
X73.052 Y38.366
X73.098 Y38.364
X73.144 Y38.366
X73.419 Y38.405
X73.603 Y38.432
X73.649 Y38.439
X73.695 Y38.452
X73.787 Y38.491
X74.154 Y38.659
X74.194 Y38.679
X74.233 Y38.704
X74.338 Y38.791
X74.521 Y38.951
X74.655 Y39.071
X74.682 Y39.104
X74.705 Y39.137
X74.898 Y39.438
X74.956 Y39.53
X74.981 Y39.576
X74.999 Y39.622
X75.133 Y40.081
X75.144 Y40.127
X75.149 Y40.173
X75.15 Y40.54
X75.146 Y40.724
X75.097 Y40.908
X75.075 Y40.985
G3 X74.808 Y41.243 I-0.38 J-0.126
G1 X74.751 Y41.251 Z-2.996
X74.695 Y41.259 Z-2.983
X74.632 Y41.245 Z-2.957
X74.574 Y41.232 Z-2.92
X74.523 Y41.22 Z-2.873
X74.485 Y41.195 Z-2.814
X74.457 Y41.177 Z-2.747
X74.439 Y41.165 Z-2.675
X74.433 Y41.162 Z-2.6
G0 Z5
X27.568 Y57.788
Z-0.5
G3 X26.237 Y61.347 Z-0.708 I-0.665 J1.78 F100
X27.568 Y57.788 Z-0.917 I0.665 J-1.78
X26.237 Y61.347 Z-1.125 I-0.665 J1.78
X27.568 Y57.788 Z-1.334 I0.665 J-1.78
X26.237 Y61.347 Z-1.542 I-0.665 J1.78
X27.568 Y57.788 Z-1.751 I0.665 J-1.78
X26.237 Y61.347 Z-1.959 I-0.665 J1.78
X27.568 Y57.788 Z-2.168 I0.665 J-1.78
X26.237 Y61.347 Z-2.376 I-0.665 J1.78
X27.568 Y57.788 Z-2.584 I0.665 J-1.78
X26.237 Y61.347 Z-2.793 I-0.665 J1.78
X27.568 Y57.788 Z-3.001 I0.665 J-1.78
X26.237 Y61.347 Z-3.21 I-0.665 J1.78
X27.568 Y57.788 Z-3.418 I0.665 J-1.78
X26.237 Y61.347 Z-3.627 I-0.665 J1.78
X27.568 Y57.788 Z-3.835 I0.665 J-1.78
X26.237 Y61.347 Z-4.044 I-0.665 J1.78
X27.568 Y57.788 Z-4.252 I0.665 J-1.78
X26.237 Y61.347 Z-4.46 I-0.665 J1.78
X27.568 Y57.788 Z-4.669 I0.665 J-1.78
X26.237 Y61.347 Z-4.877 I-0.665 J1.78
X27.568 Y57.788 Z-5.086 I0.665 J-1.78
X26.237 Y61.347 Z-5.294 I-0.665 J1.78
X27.568 Y57.788 Z-5.503 I0.665 J-1.78
X26.237 Y61.347 Z-5.711 I-0.665 J1.78
X27.568 Y57.788 Z-5.92 I0.665 J-1.78
X28.803 Y59.567 Z-6 I-0.665 J1.78
X25.003 Y59.567 I-1.9 J0
X28.803 Y59.567 I1.9 J0
G1 X28.805 Y59.663
X28.839 Y59.725
X28.888 Y59.85
X28.902 Y59.984
X28.882 Y60.117
X28.805 Y60.378
X28.785 Y60.429
X28.705 Y60.562
X28.587 Y60.745
X28.462 Y60.929
X28.418 Y60.972
X28.234 Y61.131
X28.05 Y61.288
X27.996 Y61.324
X27.953 Y61.345
X27.657 Y61.48
X27.499 Y61.548
X27.453 Y61.561
X27.407 Y61.569
X26.948 Y61.635
X26.902 Y61.637
X26.856 Y61.634
X26.581 Y61.595
X26.397 Y61.569
X26.351 Y61.561
X26.305 Y61.549
X26.213 Y61.51
X25.846 Y61.342
X25.806 Y61.321
X25.766 Y61.296
X25.662 Y61.209
X25.479 Y61.05
X25.345 Y60.929
X25.317 Y60.896
X25.295 Y60.863
X25.101 Y60.562
X25.043 Y60.47
X25.019 Y60.424
X25.001 Y60.378
X24.867 Y59.919
X24.856 Y59.873
X24.851 Y59.827
X24.85 Y59.46
X24.854 Y59.276
X24.903 Y59.092
X24.957 Y58.908
X25.014 Y58.725
X25.033 Y58.683
X25.058 Y58.641
X25.295 Y58.272
X25.33 Y58.223
X25.376 Y58.174
X25.741 Y57.858
X25.78 Y57.829
X25.82 Y57.806
X25.846 Y57.793
X26.219 Y57.623
X26.308 Y57.585
X26.353 Y57.573
X26.397 Y57.566
X26.856 Y57.5
X26.902 Y57.498
X26.948 Y57.5
X27.407 Y57.566
X27.453 Y57.573
X27.499 Y57.585
X27.587 Y57.623
X27.989 Y57.806
X28.019 Y57.824
X28.05 Y57.846
X28.43 Y58.174
X28.474 Y58.22
X28.507 Y58.266
X28.684 Y58.541
X28.785 Y58.708
X28.792 Y58.725
X28.849 Y58.908
X28.903 Y59.092
X28.952 Y59.276
X28.956 Y59.46
X28.955 Y59.827
X28.95 Y59.873
X28.939 Y59.919
X28.882 Y60.117
G3 X28.615 Y60.375 I-0.38 J-0.126
G1 X28.558 Y60.383 Z-5.996
X28.502 Y60.391 Z-5.983
X28.439 Y60.377 Z-5.957
X28.381 Y60.363 Z-5.92
X28.33 Y60.352 Z-5.873
X28.292 Y60.327 Z-5.814
X28.263 Y60.309 Z-5.747
X28.246 Y60.297 Z-5.675
X28.24 Y60.293 Z-5.6
G0 Z5
X41.099 Y25.123
Z-0.5
G3 X39.768 Y28.683 Z-0.708 I-0.665 J1.78 F100
X41.099 Y25.123 Z-0.917 I0.665 J-1.78
X39.768 Y28.683 Z-1.125 I-0.665 J1.78
X41.099 Y25.123 Z-1.334 I0.665 J-1.78
X39.768 Y28.683 Z-1.542 I-0.665 J1.78
X41.099 Y25.123 Z-1.751 I0.665 J-1.78
X39.768 Y28.683 Z-1.959 I-0.665 J1.78
X41.099 Y25.123 Z-2.168 I0.665 J-1.78
X39.768 Y28.683 Z-2.376 I-0.665 J1.78
X41.099 Y25.123 Z-2.584 I0.665 J-1.78
X39.768 Y28.683 Z-2.793 I-0.665 J1.78
X41.099 Y25.123 Z-3.001 I0.665 J-1.78
X39.768 Y28.683 Z-3.21 I-0.665 J1.78
X41.099 Y25.123 Z-3.418 I0.665 J-1.78
X39.768 Y28.683 Z-3.627 I-0.665 J1.78
X41.099 Y25.123 Z-3.835 I0.665 J-1.78
X39.768 Y28.683 Z-4.044 I-0.665 J1.78
X41.099 Y25.123 Z-4.252 I0.665 J-1.78
X39.768 Y28.683 Z-4.46 I-0.665 J1.78
X41.099 Y25.123 Z-4.669 I0.665 J-1.78
X39.768 Y28.683 Z-4.877 I-0.665 J1.78
X41.099 Y25.123 Z-5.086 I0.665 J-1.78
X39.768 Y28.683 Z-5.294 I-0.665 J1.78
X41.099 Y25.123 Z-5.503 I0.665 J-1.78
X39.768 Y28.683 Z-5.711 I-0.665 J1.78
X41.099 Y25.123 Z-5.92 I0.665 J-1.78
X42.333 Y26.903 Z-6 I-0.665 J1.78
X38.533 Y26.903 I-1.9 J0
X42.333 Y26.903 I1.9 J0
G1 X42.335 Y26.998
X42.369 Y27.06
X42.418 Y27.186
X42.432 Y27.319
X42.412 Y27.452
X42.33 Y27.729
X42.31 Y27.775
X42.254 Y27.867
X42.017 Y28.234
X42.01 Y28.244
X41.964 Y28.293
X41.609 Y28.601
X41.534 Y28.654
X41.459 Y28.692
X41.092 Y28.86
X41.046 Y28.88
X41 Y28.894
X40.908 Y28.909
X40.494 Y28.969
X40.432 Y28.973
X40.371 Y28.969
X39.898 Y28.9
X39.852 Y28.889
X39.806 Y28.873
X39.438 Y28.706
X39.348 Y28.664
X39.303 Y28.636
X39.255 Y28.599
X39.045 Y28.418
X38.887 Y28.279
X38.85 Y28.234
X38.704 Y28.01
X38.611 Y27.867
X38.556 Y27.775
X38.52 Y27.676
X38.414 Y27.316
X38.389 Y27.224
X38.382 Y27.178
X38.38 Y27.132
Y26.673
X38.382 Y26.627
X38.389 Y26.581
X38.442 Y26.397
X38.52 Y26.13
X38.557 Y26.03
X38.672 Y25.846
X38.833 Y25.595
X38.887 Y25.528
X38.942 Y25.479
X39.255 Y25.207
X39.295 Y25.176
X39.334 Y25.15
X39.438 Y25.1
X39.806 Y24.933
X39.821 Y24.928
X39.905 Y24.905
X40.357 Y24.84
X40.403 Y24.835
X40.449 Y24.834
X40.54 Y24.844
X40.978 Y24.908
X41.013 Y24.916
X41.048 Y24.928
X41.092 Y24.947
X41.459 Y25.115
X41.551 Y25.161
X41.643 Y25.235
X41.967 Y25.516
X42.01 Y25.563
X42.076 Y25.662
X42.194 Y25.846
X42.309 Y26.03
X42.37 Y26.213
X42.424 Y26.397
X42.476 Y26.581
X42.484 Y26.627
X42.486 Y26.673
Y27.132
X42.484 Y27.178
X42.477 Y27.224
X42.452 Y27.316
X42.412 Y27.452
G3 X42.145 Y27.71 I-0.38 J-0.126
G1 X42.088 Y27.718 Z-5.996
X42.032 Y27.726 Z-5.983
X41.969 Y27.712 Z-5.957
X41.911 Y27.699 Z-5.92
X41.86 Y27.687 Z-5.873
X41.822 Y27.662 Z-5.814
X41.794 Y27.644 Z-5.747
X41.776 Y27.632 Z-5.675
X41.77 Y27.629 Z-5.6
G0 Z5
X60.232 Y71.317
Z-0.5
G3 X58.902 Y74.877 Z-0.708 I-0.665 J1.78 F100
X60.232 Y71.317 Z-0.917 I0.665 J-1.78
X58.902 Y74.877 Z-1.125 I-0.665 J1.78
X60.232 Y71.317 Z-1.334 I0.665 J-1.78
X58.902 Y74.877 Z-1.542 I-0.665 J1.78
X60.232 Y71.317 Z-1.751 I0.665 J-1.78
X58.902 Y74.877 Z-1.959 I-0.665 J1.78
X60.232 Y71.317 Z-2.168 I0.665 J-1.78
X58.902 Y74.877 Z-2.376 I-0.665 J1.78
X60.232 Y71.317 Z-2.584 I0.665 J-1.78
X58.902 Y74.877 Z-2.793 I-0.665 J1.78
X60.232 Y71.317 Z-3.001 I0.665 J-1.78
X58.902 Y74.877 Z-3.21 I-0.665 J1.78
X60.232 Y71.317 Z-3.418 I0.665 J-1.78
X58.902 Y74.877 Z-3.627 I-0.665 J1.78
X60.232 Y71.317 Z-3.835 I0.665 J-1.78
X58.902 Y74.877 Z-4.044 I-0.665 J1.78
X60.232 Y71.317 Z-4.252 I0.665 J-1.78
X58.902 Y74.877 Z-4.46 I-0.665 J1.78
X60.232 Y71.317 Z-4.669 I0.665 J-1.78
X58.902 Y74.877 Z-4.877 I-0.665 J1.78
X60.232 Y71.317 Z-5.086 I0.665 J-1.78
X58.902 Y74.877 Z-5.294 I-0.665 J1.78
X60.232 Y71.317 Z-5.503 I0.665 J-1.78
X58.902 Y74.877 Z-5.711 I-0.665 J1.78
X60.232 Y71.317 Z-5.92 I0.665 J-1.78
X61.467 Y73.097 Z-6 I-0.665 J1.78
X57.667 Y73.097 I-1.9 J0
X61.467 Y73.097 I1.9 J0
G1 X61.469 Y73.192
X61.503 Y73.254
X61.552 Y73.38
X61.566 Y73.513
X61.546 Y73.646
X61.48 Y73.87
X61.443 Y73.97
X61.329 Y74.154
X61.167 Y74.405
X61.113 Y74.472
X61.059 Y74.521
X60.745 Y74.793
X60.706 Y74.824
X60.666 Y74.85
X60.562 Y74.9
X60.194 Y75.067
X60.181 Y75.072
X60.096 Y75.095
X59.643 Y75.161
X59.597 Y75.166
X59.551
X59.46 Y75.156
X59.022 Y75.093
X58.986 Y75.084
X58.951 Y75.072
X58.908 Y75.054
X58.541 Y74.886
X58.449 Y74.84
X58.357 Y74.766
X58.033 Y74.484
X57.99 Y74.437
X57.924 Y74.338
X57.806 Y74.154
X57.691 Y73.97
X57.63 Y73.787
X57.576 Y73.603
X57.524 Y73.419
X57.516 Y73.373
X57.514 Y73.327
Y72.868
X57.516 Y72.822
X57.523 Y72.776
X57.548 Y72.684
X57.67 Y72.271
X57.69 Y72.225
X57.746 Y72.133
X57.983 Y71.766
X57.99 Y71.757
X58.036 Y71.707
X58.392 Y71.399
X58.467 Y71.346
X58.541 Y71.309
X58.908 Y71.141
X58.954 Y71.121
X59 Y71.107
X59.092 Y71.091
X59.511 Y71.031
X59.568 Y71.028
X59.625 Y71.031
X60.102 Y71.1
X60.148 Y71.112
X60.194 Y71.127
X60.562 Y71.294
X60.652 Y71.336
X60.697 Y71.364
X60.745 Y71.401
X60.954 Y71.582
X61.113 Y71.722
X61.15 Y71.766
X61.296 Y71.99
X61.388 Y72.133
X61.444 Y72.225
X61.48 Y72.324
X61.586 Y72.684
X61.611 Y72.776
X61.618 Y72.822
X61.62 Y72.868
Y73.327
X61.618 Y73.373
X61.611 Y73.419
X61.546 Y73.646
G3 X61.279 Y73.904 I-0.38 J-0.126
G1 X61.222 Y73.912 Z-5.996
X61.166 Y73.92 Z-5.983
X61.103 Y73.906 Z-5.957
X61.045 Y73.893 Z-5.92
X60.994 Y73.881 Z-5.873
X60.956 Y73.856 Z-5.814
X60.928 Y73.838 Z-5.747
X60.91 Y73.827 Z-5.675
X60.904 Y73.823 Z-5.6
G0 Z5
X73.762 Y38.653
Z-0.5
G3 X72.432 Y42.213 Z-0.708 I-0.665 J1.78 F100
X73.762 Y38.653 Z-0.917 I0.665 J-1.78
X72.432 Y42.213 Z-1.125 I-0.665 J1.78
X73.762 Y38.653 Z-1.334 I0.665 J-1.78
X72.432 Y42.213 Z-1.542 I-0.665 J1.78
X73.762 Y38.653 Z-1.751 I0.665 J-1.78
X72.432 Y42.213 Z-1.959 I-0.665 J1.78
X73.762 Y38.653 Z-2.168 I0.665 J-1.78
X72.432 Y42.213 Z-2.376 I-0.665 J1.78
X73.762 Y38.653 Z-2.584 I0.665 J-1.78
X72.432 Y42.213 Z-2.793 I-0.665 J1.78
X73.762 Y38.653 Z-3.001 I0.665 J-1.78
X72.432 Y42.213 Z-3.21 I-0.665 J1.78
X73.762 Y38.653 Z-3.418 I0.665 J-1.78
X72.432 Y42.213 Z-3.627 I-0.665 J1.78
X73.762 Y38.653 Z-3.835 I0.665 J-1.78
X72.432 Y42.213 Z-4.044 I-0.665 J1.78
X73.762 Y38.653 Z-4.252 I0.665 J-1.78
X72.432 Y42.213 Z-4.46 I-0.665 J1.78
X73.762 Y38.653 Z-4.669 I0.665 J-1.78
X72.432 Y42.213 Z-4.877 I-0.665 J1.78
X73.762 Y38.653 Z-5.086 I0.665 J-1.78
X72.432 Y42.213 Z-5.294 I-0.665 J1.78
X73.762 Y38.653 Z-5.503 I0.665 J-1.78
X72.432 Y42.213 Z-5.711 I-0.665 J1.78
X73.762 Y38.653 Z-5.92 I0.665 J-1.78
X74.997 Y40.433 Z-6 I-0.665 J1.78
X71.197 Y40.433 I-1.9 J0
X74.997 Y40.433 I1.9 J0
G1 X74.999 Y40.528
X75.032 Y40.589
X75.081 Y40.716
X75.096 Y40.851
X75.075 Y40.985
X75.044 Y41.092
X74.986 Y41.275
X74.968 Y41.317
X74.943 Y41.359
X74.705 Y41.729
X74.67 Y41.778
X74.625 Y41.826
X74.26 Y42.143
X74.221 Y42.171
X74.182 Y42.194
X74.154 Y42.208
X73.783 Y42.377
X73.693 Y42.415
X73.603 Y42.435
X73.144 Y42.5
X73.098 Y42.503
X73.052 Y42.501
X72.593 Y42.435
X72.547 Y42.428
X72.501 Y42.415
X72.411 Y42.377
X72.01 Y42.194
X71.98 Y42.176
X71.95 Y42.155
X71.57 Y41.826
X71.525 Y41.78
X71.493 Y41.734
X71.316 Y41.459
X71.215 Y41.293
X71.208 Y41.275
X71.15 Y41.092
X71.097 Y40.908
X71.048 Y40.724
X71.044 Y40.54
X71.045 Y40.173
X71.05 Y40.127
X71.061 Y40.081
X71.195 Y39.622
X71.215 Y39.572
X71.296 Y39.438
X71.414 Y39.255
X71.538 Y39.071
X71.582 Y39.029
X71.766 Y38.87
X71.95 Y38.712
X71.962 Y38.704
X72.133 Y38.616
X72.344 Y38.52
X72.501 Y38.452
X72.547 Y38.439
X72.593 Y38.431
X73.052 Y38.366
X73.098 Y38.364
X73.144 Y38.366
X73.419 Y38.405
X73.603 Y38.432
X73.649 Y38.439
X73.695 Y38.452
X73.787 Y38.491
X74.154 Y38.659
X74.194 Y38.679
X74.233 Y38.704
X74.338 Y38.791
X74.521 Y38.951
X74.655 Y39.071
X74.682 Y39.104
X74.705 Y39.137
X74.898 Y39.438
X74.956 Y39.53
X74.981 Y39.576
X74.999 Y39.622
X75.133 Y40.081
X75.144 Y40.127
X75.149 Y40.173
X75.15 Y40.54
X75.146 Y40.724
X75.097 Y40.908
X75.075 Y40.985
G3 X74.695 Y41.259 I-0.38 J-0.126
X74.433 Y41.162 I0 J-0.4
G1 X74.374 Y41.111 Z-5.992
X74.318 Y41.061 Z-5.97
X74.265 Y41.016 Z-5.933
X74.22 Y40.977 Z-5.883
X74.182 Y40.944 Z-5.822
X74.154 Y40.92 Z-5.753
X74.137 Y40.905 Z-5.678
X74.131 Y40.9 Z-5.6
G0 Z15

(2D Contour2)
X74.497 Y40.033
Z15
Z5
G1 Z4 F100
Z-2.6
G18 G2 X74.897 Z-3 I0.4 K0
G1 X75.297
G17 G3 X75.697 Y40.433 I0 J0.4
X70.497 Y40.433 I-2.6 J0
X75.697 Y40.433 I2.6 J0
X75.297 Y40.833 I-0.4 J0
G1 X74.897
G18 G3 X74.497 Z-2.6 I0 K0.4
G0 Z5
Y40.033
G1 Z1 F100
Z-5.6
G2 X74.897 Z-6 I0.4 K0
G1 X75.297
G17 G3 X75.697 Y40.433 I0 J0.4
X70.497 Y40.433 I-2.6 J0
X75.697 Y40.433 I2.6 J0
X75.297 Y40.833 I-0.4 J0
G1 X74.897
G18 G3 X74.497 Z-5.6 I0 K0.4
G0 Z5
X60.967 Y72.697
G1 Z4 F100
Z-2.6
G2 X61.367 Z-3 I0.4 K0
G1 X61.767
G17 G3 X62.167 Y73.097 I0 J0.4
X56.967 Y73.097 I-2.6 J0
X62.167 Y73.097 I2.6 J0
X61.767 Y73.497 I-0.4 J0
G1 X61.367
G18 G3 X60.967 Z-2.6 I0 K0.4
G0 Z5
Y72.697
G1 Z1 F100
Z-5.6
G2 X61.367 Z-6 I0.4 K0
G1 X61.767
G17 G3 X62.167 Y73.097 I0 J0.4
X56.967 Y73.097 I-2.6 J0
X62.167 Y73.097 I2.6 J0
X61.767 Y73.497 I-0.4 J0
G1 X61.367
G18 G3 X60.967 Z-5.6 I0 K0.4
G0 Z5
X28.312 Y59.202
G1 Z4 F100
Z-2.6
X28.32 Z-2.678
X28.343 Y59.203 Z-2.753
X28.38 Y59.204 Z-2.822
X28.43 Y59.205 Z-2.883
X28.49 Y59.206 Z-2.933
X28.559 Y59.208 Z-2.97
X28.634 Y59.21 Z-2.992
X28.712 Y59.212 Z-3
X29.112 Y59.222
G17 G3 X29.502 Y59.631 I-0.01 J0.4
X24.304 Y59.504 I-2.599 J-0.064
X29.502 Y59.631 I2.599 J0.064
X29.093 Y60.021 I-0.4 J-0.01
G1 X28.693 Y60.011
X28.615 Y60.01 Z-2.992
X28.54 Y60.008 Z-2.97
X28.47 Y60.006 Z-2.933
X28.41 Y60.005 Z-2.883
X28.36 Y60.003 Z-2.822
X28.323 Y60.002 Z-2.753
X28.3 Z-2.678
X28.293 Z-2.6
G0 Z5
X28.312 Y59.202
G1 Z1 F100
Z-5.6
X28.32 Z-5.678
X28.343 Y59.203 Z-5.753
X28.38 Y59.204 Z-5.822
X28.43 Y59.205 Z-5.883
X28.49 Y59.206 Z-5.933
X28.559 Y59.208 Z-5.97
X28.634 Y59.21 Z-5.992
X28.712 Y59.212 Z-6
X29.112 Y59.222
G3 X29.502 Y59.631 I-0.01 J0.4
X24.304 Y59.504 I-2.599 J-0.064
X29.502 Y59.631 I2.599 J0.064
X29.093 Y60.021 I-0.4 J-0.01
G1 X28.693 Y60.011
X28.615 Y60.01 Z-5.992
X28.54 Y60.008 Z-5.97
X28.47 Y60.006 Z-5.933
X28.41 Y60.005 Z-5.883
X28.36 Y60.003 Z-5.822
X28.323 Y60.002 Z-5.753
X28.3 Z-5.678
X28.293 Z-5.6
G0 Z5
X41.842 Y26.538
G1 Z4 F100
Z-2.6
X41.85 Z-2.678
X41.873 Y26.539 Z-2.753
X41.91 Z-2.822
X41.959 Y26.541 Z-2.883
X42.02 Y26.542 Z-2.933
X42.089 Y26.544 Z-2.97
X42.164 Y26.546 Z-2.992
X42.242 Y26.548 Z-3
X42.642 Y26.557
G3 X43.032 Y26.967 I-0.01 J0.4
X37.834 Y26.839 I-2.599 J-0.064
X43.032 Y26.967 I2.599 J0.064
X42.622 Y27.357 I-0.4 J-0.01
G1 X42.223 Y27.347
X42.145 Y27.345 Z-2.992
X42.07 Y27.344 Z-2.97
X42 Y27.342 Z-2.933
X41.94 Y27.34 Z-2.883
X41.89 Y27.339 Z-2.822
X41.853 Y27.338 Z-2.753
X41.83 Z-2.678
X41.823 Z-2.6
G0 Z5
X41.842 Y26.538
G1 Z1 F100
Z-5.6
X41.85 Z-5.678
X41.873 Y26.539 Z-5.753
X41.91 Z-5.822
X41.959 Y26.541 Z-5.883
X42.02 Y26.542 Z-5.933
X42.089 Y26.544 Z-5.97
X42.164 Y26.546 Z-5.992
X42.242 Y26.548 Z-6
X42.642 Y26.557
G3 X43.032 Y26.967 I-0.01 J0.4
X37.834 Y26.839 I-2.599 J-0.064
X43.032 Y26.967 I2.599 J0.064
X42.622 Y27.357 I-0.4 J-0.01
G1 X42.223 Y27.347
X42.145 Y27.345 Z-5.992
X42.07 Y27.344 Z-5.97
X42 Y27.342 Z-5.933
X41.94 Y27.34 Z-5.883
X41.89 Y27.339 Z-5.822
X41.853 Y27.338 Z-5.753
X41.83 Z-5.678
X41.823 Z-5.6
G0 Z15

(2D Contour3)
X25.257 Y12.698
Z15
Z5
G1 Z2 F100
Z-0.6
X25.263 Y12.703 Z-0.678
X25.281 Y12.717 Z-0.753
X25.31 Y12.739 Z-0.822
X25.35 Y12.769 Z-0.883
X25.398 Y12.806 Z-0.933
X25.453 Y12.847 Z-0.97
X25.513 Y12.893 Z-0.992
X25.575 Y12.94 Z-1
X25.894 Y13.182
G3 X25.971 Y13.742 I-0.242 J0.319
G1 X25.957 Y13.761
X25.631 Y14.199
X25.575 Y14.277
X25.266 Y14.726
X25.213 Y14.807
X24.923 Y15.266
X24.876 Y15.344
X24.603 Y15.813
X24.56 Y15.891
X24.305 Y16.369
X24.266 Y16.444
X24.027 Y16.931
X23.993 Y17.003
X23.769 Y17.498
X23.741 Y17.561
X23.531 Y18.063
X23.503 Y18.131
X23.111 Y19.15
X23.101 Y19.176
X22.735 Y20.159
X22.568 Y20.564
X22.389 Y20.94
X22.314 Y21.079
X22.227 Y21.225
X22.139 Y21.36
X22.049 Y21.484
X21.956 Y21.6
X21.859 Y21.71
X21.757 Y21.815
X21.648 Y21.915
X21.533 Y22.012
X21.41 Y22.104
X21.28 Y22.193
X21.141 Y22.278
X20.992 Y22.362
X20.844 Y22.438
X20.451 Y22.616
X20.02 Y22.788
X19.529 Y22.971
X19.525 Y22.973
X18.492 Y23.36
X18.437 Y23.381
X17.926 Y23.587
X17.869 Y23.61
X17.365 Y23.828
X17.299 Y23.857
X16.802 Y24.089
X16.729 Y24.124
X16.24 Y24.372
X16.161 Y24.413
X15.681 Y24.678
X15.601 Y24.724
X15.13 Y25.007
X15.05 Y25.057
X14.589 Y25.359
X14.509 Y25.413
X14.057 Y25.734
X13.978 Y25.792
X13.536 Y26.133
X13.459 Y26.195
X13.029 Y26.554
X12.954 Y26.62
X12.539 Y26.995
X12.467 Y27.063
X12.07 Y27.453
X12.001 Y27.523
X11.621 Y27.927
X11.555 Y28
X11.191 Y28.418
X11.128 Y28.493
X10.781 Y28.925
X10.721 Y29.002
X10.39 Y29.448
X10.333 Y29.528
X10.019 Y29.988
X9.966 Y30.07
X9.668 Y30.544
X9.619 Y30.627
X9.34 Y31.112
X9.293 Y31.197
X9.034 Y31.692
X8.99 Y31.779
X8.751 Y32.281
X8.712 Y32.369
X8.493 Y32.879
X8.457 Y32.968
X8.258 Y33.486
X8.225 Y33.576
X8.046 Y34.101
X8.017 Y34.193
X7.858 Y34.726
X7.832 Y34.819
X7.694 Y35.36
X7.672 Y35.455
X7.554 Y36.003
X7.535 Y36.099
X7.439 Y36.651
X7.424 Y36.747
X7.35 Y37.299
X7.338 Y37.397
X7.286 Y37.949
X7.279 Y38.047
X7.248 Y38.6
X7.245 Y38.698
X7.236 Y39.252
Y39.351
X7.249 Y39.905
X7.253 Y40.004
X7.288 Y40.559
X7.296 Y40.658
X7.353 Y41.214
X7.365 Y41.312
X7.445 Y41.867
X7.461 Y41.965
X7.562 Y42.515
X7.581 Y42.611
X7.703 Y43.155
X7.726 Y43.247
X7.868 Y43.784
X7.893 Y43.872
X8.054 Y44.404
X8.082 Y44.488
X8.262 Y45.014
X8.289 Y45.089
X8.487 Y45.609
X8.512 Y45.673
X8.723 Y46.189
X8.745 Y46.24
X8.969 Y46.752
X8.987 Y46.793
X9.449 Y47.8
X9.655 Y48.26
X9.821 Y48.67
X9.954 Y49.063
X9.996 Y49.212
X10.033 Y49.376
X10.062 Y49.536
X10.083 Y49.693
X10.095 Y49.848
X10.099 Y50.004
X10.096 Y50.136
X10.086 Y50.272
X10.07 Y50.411
X10.051 Y50.528
X9.978 Y50.849
X9.881 Y51.166
X9.749 Y51.517
X9.584 Y51.903
X9.173 Y52.799
X9.16 Y52.827
X8.747 Y53.758
X8.72 Y53.819
X8.527 Y54.289
X8.504 Y54.347
X8.322 Y54.821
X8.297 Y54.89
X8.129 Y55.369
X8.105 Y55.442
X7.952 Y55.926
X7.929 Y56.004
X7.792 Y56.493
X7.771 Y56.576
X7.651 Y57.07
X7.631 Y57.156
X7.528 Y57.656
X7.512 Y57.744
X7.427 Y58.249
X7.413 Y58.339
X7.346 Y58.851
X7.335 Y58.941
X7.287 Y59.456
X7.28 Y59.547
X7.25 Y60.061
X7.247 Y60.152
X7.236 Y60.664
Y60.755
X7.243 Y61.266
X7.246 Y61.357
X7.273 Y61.867
X7.279 Y61.956
X7.324 Y62.465
X7.333 Y62.555
X7.396 Y63.062
X7.409 Y63.152
X7.49 Y63.658
X7.506 Y63.747
X7.606 Y64.252
X7.625 Y64.34
X7.744 Y64.844
X7.766 Y64.93
X7.902 Y65.427
X7.927 Y65.513
X8.08 Y66.003
X8.108 Y66.087
X8.278 Y66.57
X8.309 Y66.653
X8.496 Y67.129
X8.53 Y67.211
X8.733 Y67.679
X8.77 Y67.76
X8.99 Y68.222
X9.03 Y68.302
X9.267 Y68.756
X9.31 Y68.835
X9.564 Y69.283
X9.61 Y69.359
X9.881 Y69.799
X9.929 Y69.874
X10.215 Y70.303
X10.267 Y70.378
X10.567 Y70.795
X10.621 Y70.867
X10.935 Y71.272
X10.991 Y71.341
X11.319 Y71.733
X11.378 Y71.802
X11.72 Y72.181
X11.781 Y72.247
X12.136 Y72.614
X12.2 Y72.678
X12.569 Y73.033
X12.636 Y73.095
X13.018 Y73.437
X13.088 Y73.497
X13.485 Y73.827
X13.556 Y73.884
X13.966 Y74.199
X14.039 Y74.254
X14.459 Y74.553
X14.533 Y74.604
X14.961 Y74.887
X15.036 Y74.934
X15.473 Y75.201
X15.547 Y75.245
X15.993 Y75.497
X16.067 Y75.537
X16.521 Y75.773
X16.592 Y75.809
X17.054 Y76.031
X17.118 Y76.061
X17.587 Y76.27
X17.645 Y76.295
X18.12 Y76.493
X18.186 Y76.52
X19.15 Y76.889
X19.173 Y76.898
X20.107 Y77.246
X20.5 Y77.405
X20.843 Y77.563
X21.164 Y77.736
X21.279 Y77.807
X21.402 Y77.891
X21.517 Y77.976
X21.625 Y78.065
X21.728 Y78.158
X21.826 Y78.255
X21.92 Y78.358
X22.011 Y78.468
X22.1 Y78.584
X22.183 Y78.706
X22.265 Y78.836
X22.335 Y78.959
X22.504 Y79.297
X22.664 Y79.664
X22.828 Y80.087
X23.183 Y81.045
X23.2 Y81.089
X23.58 Y82.058
X23.611 Y82.133
X23.816 Y82.61
X23.844 Y82.673
X24.062 Y83.143
X24.095 Y83.211
X24.327 Y83.674
X24.365 Y83.747
X24.612 Y84.203
X24.655 Y84.279
X24.918 Y84.727
X24.965 Y84.803
X25.245 Y85.242
X25.295 Y85.318
X25.593 Y85.749
X25.646 Y85.824
X25.961 Y86.246
X26.019 Y86.32
X26.35 Y86.731
X26.41 Y86.803
X26.755 Y87.199
X26.817 Y87.268
X27.175 Y87.65
X27.24 Y87.717
X27.612 Y88.085
X27.678 Y88.149
X28.062 Y88.502
X28.131 Y88.563
X28.528 Y88.902
X28.599 Y88.96
X29.009 Y89.285
X29.082 Y89.341
X29.505 Y89.651
X29.58 Y89.704
X30.016 Y90
X30.093 Y90.05
X30.541 Y90.33
X30.619 Y90.378
X31.075 Y90.64
X31.155 Y90.685
X31.618 Y90.93
X31.699 Y90.97
X32.169 Y91.198
X32.252 Y91.236
X32.73 Y91.446
X32.814 Y91.48
X33.299 Y91.673
X33.384 Y91.705
X33.876 Y91.88
X33.962 Y91.908
X34.462 Y92.066
X34.55 Y92.092
X35.057 Y92.231
X35.146 Y92.254
X35.66 Y92.375
X35.75 Y92.395
X36.267 Y92.497
X36.357 Y92.513
X36.874 Y92.595
X36.966 Y92.608
X37.484 Y92.671
X37.576 Y92.681
X38.096 Y92.725
X38.188 Y92.731
X38.709 Y92.756
X38.801 Y92.759
X39.323 Y92.764
X39.416
X39.94 Y92.75
X40.032 Y92.746
X40.557 Y92.712
X40.651 Y92.705
X41.175 Y92.652
X41.268 Y92.64
X41.79 Y92.568
X41.882 Y92.553
X42.399 Y92.461
X42.489 Y92.444
X43.001 Y92.333
X43.088 Y92.313
X43.595 Y92.185
X43.68 Y92.162
X44.182 Y92.015
X44.262 Y91.991
X44.759 Y91.828
X44.832 Y91.802
X45.325 Y91.624
X45.391 Y91.599
X45.879 Y91.406
X45.957 Y91.374
X46.925 Y90.953
X46.972 Y90.932
X47.914 Y90.499
X48.337 Y90.313
X48.717 Y90.162
X49.086 Y90.039
X49.226 Y90.001
X49.38 Y89.966
X49.529 Y89.939
X49.675 Y89.919
X49.818 Y89.907
X49.959 Y89.901
X50.1 Y89.903
X50.242 Y89.911
X50.387 Y89.927
X50.536 Y89.95
X50.687 Y89.98
X50.821 Y90.014
X51.179 Y90.125
X51.546 Y90.264
X51.955 Y90.44
X52.889 Y90.869
X52.923 Y90.884
X53.889 Y91.309
X53.961 Y91.34
X54.449 Y91.537
X54.512 Y91.562
X55.004 Y91.745
X55.075 Y91.77
X55.571 Y91.938
X55.65 Y91.963
X56.152 Y92.115
X56.236 Y92.138
X56.744 Y92.272
X56.831 Y92.294
X57.344 Y92.41
X57.433 Y92.428
X57.952 Y92.526
X58.044 Y92.541
X58.569 Y92.62
X58.663 Y92.632
X59.193 Y92.691
X59.286 Y92.699
X59.818 Y92.738
X59.913 Y92.743
X60.442 Y92.762
X60.536 Y92.763
X61.064 Y92.762
X61.158 Y92.76
X61.685 Y92.739
X61.778 Y92.733
X62.303 Y92.693
X62.396 Y92.684
X62.921 Y92.623
X63.012 Y92.611
X63.535 Y92.531
X63.627 Y92.516
X64.149 Y92.416
X64.24 Y92.397
X64.759 Y92.277
X64.848 Y92.255
X65.363 Y92.117
X65.452 Y92.091
X65.959 Y91.934
X66.046 Y91.906
X66.545 Y91.731
X66.631 Y91.699
X67.123 Y91.507
X67.207 Y91.472
X67.691 Y91.262
X67.774 Y91.224
X68.251 Y90.996
X68.332 Y90.955
X68.801 Y90.709
X68.882 Y90.664
X69.343 Y90.401
X69.422 Y90.353
X69.875 Y90.071
X69.953 Y90.02
X70.394 Y89.722
X70.47 Y89.669
X70.898 Y89.356
X70.971 Y89.3
X71.386 Y88.973
X71.458 Y88.914
X71.86 Y88.572
X71.93 Y88.509
X72.318 Y88.153
X72.386 Y88.088
X72.761 Y87.717
X72.827 Y87.649
X73.188 Y87.263
X73.251 Y87.193
X73.599 Y86.792
X73.659 Y86.721
X73.993 Y86.305
X74.051 Y86.23
X74.369 Y85.802
X74.423 Y85.726
X74.724 Y85.289
X74.775 Y85.212
X75.059 Y84.764
X75.106 Y84.687
X75.372 Y84.231
X75.416 Y84.154
X75.666 Y83.689
X75.704 Y83.614
X75.939 Y83.141
X75.972 Y83.072
X76.193 Y82.59
X76.22 Y82.528
X76.428 Y82.039
X76.458 Y81.966
X76.844 Y80.973
X76.857 Y80.938
X77.217 Y79.967
X77.383 Y79.552
X77.546 Y79.191
X77.724 Y78.856
X77.797 Y78.736
X77.883 Y78.608
X77.971 Y78.489
X78.063 Y78.377
X78.159 Y78.271
X78.259 Y78.17
X78.366 Y78.073
X78.48 Y77.979
X78.601 Y77.889
X78.728 Y77.803
X78.864 Y77.719
X78.993 Y77.647
X79.348 Y77.472
X79.737 Y77.307
X80.186 Y77.135
X81.181 Y76.766
X81.215 Y76.753
X81.716 Y76.559
X81.763 Y76.54
X82.259 Y76.336
X82.32 Y76.311
X82.81 Y76.094
X82.877 Y76.063
X83.359 Y75.833
X83.432 Y75.797
X83.906 Y75.551
X83.983 Y75.51
X84.449 Y75.247
X84.528 Y75.201
X84.986 Y74.921
X85.065 Y74.871
X85.513 Y74.573
X85.59 Y74.519
X86.029 Y74.203
X86.107 Y74.145
X86.536 Y73.81
X86.611 Y73.749
X87.028 Y73.397
X87.101 Y73.332
X87.503 Y72.966
X87.572 Y72.9
X87.958 Y72.52
X88.025 Y72.451
X88.394 Y72.057
X88.458 Y71.986
X88.812 Y71.579
X88.874 Y71.506
X89.212 Y71.085
X89.27 Y71.01
X89.593 Y70.576
X89.648 Y70.498
X89.956 Y70.051
X90.008 Y69.971
X90.3 Y69.51
X90.349 Y69.428
X90.623 Y68.956
X90.669 Y68.874
X90.923 Y68.394
X90.966 Y68.309
X91.201 Y67.822
X91.24 Y67.737
X91.457 Y67.242
X91.493 Y67.156
X91.691 Y66.653
X91.724 Y66.565
X91.902 Y66.055
X91.932 Y65.966
X92.092 Y65.449
X92.118 Y65.357
X92.259 Y64.832
X92.282 Y64.741
X92.403 Y64.209
X92.422 Y64.116
X92.523 Y63.58
X92.539 Y63.486
X92.619 Y62.949
X92.632 Y62.854
X92.691 Y62.317
X92.7 Y62.222
X92.739 Y61.683
X92.744 Y61.588
X92.762 Y61.049
X92.763 Y60.953
X92.761 Y60.413
X92.759 Y60.317
X92.735 Y59.776
X92.729 Y59.68
X92.685 Y59.138
X92.675 Y59.042
X92.61 Y58.5
X92.596 Y58.404
X92.51 Y57.865
X92.493 Y57.771
X92.387 Y57.238
X92.367 Y57.147
X92.241 Y56.62
X92.218 Y56.531
X92.073 Y56.01
X92.048 Y55.926
X91.885 Y55.41
X91.858 Y55.33
X91.677 Y54.82
X91.651 Y54.749
X91.455 Y54.243
X91.431 Y54.184
X91.221 Y53.682
X91.201 Y53.636
X90.981 Y53.137
X90.966 Y53.104
X90.518 Y52.127
X90.322 Y51.686
X90.165 Y51.292
X90.038 Y50.912
X89.999 Y50.768
X89.963 Y50.609
X89.936 Y50.453
X89.916 Y50.3
X89.905 Y50.149
X89.901 Y49.997
X89.904 Y49.869
X89.913 Y49.738
X89.928 Y49.604
X89.946 Y49.491
X90.014 Y49.181
X90.105 Y48.878
X90.228 Y48.543
X90.382 Y48.175
X90.777 Y47.311
X90.783 Y47.296
X91.188 Y46.394
X91.211 Y46.341
X91.403 Y45.886
X91.424 Y45.833
X91.605 Y45.375
X91.629 Y45.311
X91.797 Y44.849
X91.821 Y44.78
X91.974 Y44.313
X91.998 Y44.239
X92.137 Y43.767
X92.159 Y43.689
X92.283 Y43.213
X92.303 Y43.131
X92.411 Y42.649
X92.428 Y42.565
X92.52 Y42.079
X92.535 Y41.992
X92.61 Y41.501
X92.622 Y41.413
X92.68 Y40.916
X92.688 Y40.827
X92.729 Y40.326
X92.735 Y40.237
X92.757 Y39.736
X92.759 Y39.647
X92.764 Y39.147
X92.763 Y39.06
X92.75 Y38.562
X92.747 Y38.474
X92.716 Y37.978
X92.709 Y37.89
X92.662 Y37.396
X92.652 Y37.309
X92.586 Y36.816
X92.574 Y36.73
X92.491 Y36.238
X92.475 Y36.152
X92.375 Y35.661
X92.356 Y35.576
X92.239 Y35.088
X92.217 Y35.004
X92.082 Y34.52
X92.058 Y34.436
X91.907 Y33.959
X91.879 Y33.876
X91.713 Y33.406
X91.682 Y33.325
X91.5 Y32.862
X91.467 Y32.782
X91.269 Y32.326
X91.233 Y32.247
X91.02 Y31.799
X90.981 Y31.721
X90.752 Y31.279
X90.711 Y31.203
X90.465 Y30.768
X90.421 Y30.693
X90.16 Y30.265
X90.113 Y30.192
X89.836 Y29.772
X89.787 Y29.7
X89.496 Y29.291
X89.445 Y29.221
X89.141 Y28.825
X89.086 Y28.755
X88.77 Y28.37
X88.713 Y28.304
X88.384 Y27.931
X88.324 Y27.865
X87.982 Y27.505
X87.92 Y27.442
X87.565 Y27.094
X87.501 Y27.033
X87.134 Y26.697
X87.068 Y26.638
X86.688 Y26.315
X86.619 Y26.258
X86.226 Y25.946
X86.155 Y25.892
X85.75 Y25.594
X85.678 Y25.543
X85.265 Y25.26
X85.192 Y25.212
X84.77 Y24.945
X84.697 Y24.901
X84.268 Y24.649
X84.196 Y24.608
X83.759 Y24.371
X83.69 Y24.335
X83.247 Y24.112
X83.18 Y24.08
X82.731 Y23.87
X82.668 Y23.842
X82.212 Y23.644
X82.159 Y23.622
X81.698 Y23.435
X81.644 Y23.414
X80.712 Y23.06
X80.701 Y23.056
X79.806 Y22.721
X79.441 Y22.57
X79.118 Y22.418
X78.817 Y22.253
X78.71 Y22.186
X78.592 Y22.106
X78.481 Y22.022
X78.375 Y21.935
X78.273 Y21.844
X78.177 Y21.748
X78.085 Y21.649
X77.998 Y21.545
X77.914 Y21.436
X77.847 Y21.34
X77.675 Y21.058
X77.52 Y20.757
X77.365 Y20.407
X77.207 Y20.006
X76.861 Y19.075
X76.849 Y19.041
X76.481 Y18.093
X76.454 Y18.026
X76.258 Y17.559
X76.232 Y17.501
X76.025 Y17.04
X75.992 Y16.971
X75.771 Y16.517
X75.735 Y16.447
X75.5 Y16.001
X75.461 Y15.929
X75.211 Y15.491
X75.168 Y15.419
X74.903 Y14.989
X74.856 Y14.916
X74.576 Y14.494
X74.526 Y14.422
X74.23 Y14.009
X74.177 Y13.937
X73.865 Y13.533
X73.807 Y13.461
X73.478 Y13.066
X73.418 Y12.997
X73.072 Y12.611
X73.009 Y12.544
X72.646 Y12.169
X72.581 Y12.104
X72.205 Y11.742
X72.137 Y11.68
X71.75 Y11.334
X71.681 Y11.275
X71.283 Y10.945
X71.211 Y10.888
X70.802 Y10.573
X70.729 Y10.519
X70.309 Y10.219
X70.234 Y10.168
X69.803 Y9.883
X69.727 Y9.835
X69.285 Y9.566
X69.207 Y9.52
X68.754 Y9.266
X68.674 Y9.223
X68.21 Y8.985
X68.129 Y8.945
X67.656 Y8.723
X67.573 Y8.686
X67.095 Y8.483
X67.012 Y8.449
X66.528 Y8.263
X66.443 Y8.232
X65.955 Y8.065
X65.87 Y8.037
X65.376 Y7.887
X65.289 Y7.863
X64.789 Y7.73
X64.703 Y7.709
X64.198 Y7.595
X64.109 Y7.576
X63.599 Y7.48
X63.509 Y7.465
X62.994 Y7.387
X62.903 Y7.375
X62.384 Y7.316
X62.293 Y7.307
X61.774 Y7.267
X61.682 Y7.262
X61.164 Y7.241
X61.073 Y7.239
X60.556 Y7.237
X60.464 Y7.239
X59.948 Y7.256
X59.857 Y7.26
X59.342 Y7.296
X59.25 Y7.305
X58.737 Y7.36
X58.646 Y7.371
X58.133 Y7.445
X58.042 Y7.46
X57.53 Y7.553
X57.441 Y7.571
X56.931 Y7.683
X56.845 Y7.704
X56.339 Y7.834
X56.255 Y7.857
X55.755 Y8.004
X55.675 Y8.03
X55.181 Y8.193
X55.108 Y8.219
X54.62 Y8.398
X54.556 Y8.422
X54.073 Y8.614
X54.019 Y8.637
X53.539 Y8.84
X53.489 Y8.863
X51.64 Y9.697
X51.279 Y9.84
X50.916 Y9.96
X50.776 Y9.998
X50.623 Y10.033
X50.476 Y10.061
X50.333 Y10.08
X50.188 Y10.093
X50.044 Y10.099
X49.901 Y10.098
X49.758 Y10.089
X49.615 Y10.074
X49.468 Y10.051
X49.317 Y10.021
X49.182 Y9.988
X48.818 Y9.875
X48.442 Y9.732
X48.023 Y9.551
X47.558 Y9.338
X47.551 Y9.335
X46.571 Y8.89
X46.523 Y8.869
X46.029 Y8.657
X45.974 Y8.634
X45.477 Y8.435
X45.408 Y8.408
X44.905 Y8.224
X44.831 Y8.198
X44.323 Y8.029
X44.242 Y8.004
X43.729 Y7.852
X43.642 Y7.829
X43.122 Y7.696
X43.032 Y7.674
X42.506 Y7.56
X42.414 Y7.542
X41.881 Y7.447
X41.787 Y7.432
X41.247 Y7.358
X41.151 Y7.346
X40.607 Y7.292
X40.511 Y7.284
X39.967 Y7.252
X39.871 Y7.248
X39.328 Y7.236
X39.232 Y7.235
X38.69 Y7.244
X38.594 Y7.248
X38.054 Y7.278
X37.958 Y7.285
X37.42 Y7.335
X37.324 Y7.346
X36.788 Y7.417
X36.693 Y7.432
X36.158 Y7.524
X36.066 Y7.541
X35.532 Y7.654
X35.439 Y7.675
X34.909 Y7.808
X34.817 Y7.833
X34.294 Y7.986
X34.203 Y8.014
X33.689 Y8.186
X33.6 Y8.217
X33.093 Y8.407
X33.006 Y8.442
X32.507 Y8.651
X32.421 Y8.689
X31.931 Y8.916
X31.846 Y8.957
X31.364 Y9.203
X31.28 Y9.248
X30.806 Y9.513
X30.724 Y9.561
X30.257 Y9.845
X30.177 Y9.896
X29.721 Y10.198
X29.643 Y10.253
X29.201 Y10.571
X29.125 Y10.628
X28.697 Y10.961
X28.623 Y11.021
X28.209 Y11.37
X28.137 Y11.432
X27.738 Y11.796
X27.668 Y11.862
X27.282 Y12.241
X27.215 Y12.31
X26.843 Y12.704
X26.778 Y12.775
X26.421 Y13.185
X26.359 Y13.259
X26.016 Y13.685
X25.971 Y13.742
G3 X25.41 Y13.819 I-0.319 J-0.242
G1 X25.092 Y13.577
X25.029 Y13.53 Z-0.992
X24.97 Y13.485 Z-0.97
X24.915 Y13.443 Z-0.933
X24.866 Y13.406 Z-0.883
X24.827 Y13.376 Z-0.822
X24.797 Y13.354 Z-0.753
X24.779 Y13.34 Z-0.678
X24.773 Y13.335 Z-0.6
G0 Z5
X25.257 Y12.698
G1 Z1 F100
Z-1.6
X25.263 Y12.703 Z-1.678
X25.281 Y12.717 Z-1.753
X25.31 Y12.739 Z-1.822
X25.35 Y12.769 Z-1.883
X25.398 Y12.806 Z-1.933
X25.453 Y12.847 Z-1.97
X25.513 Y12.893 Z-1.992
X25.575 Y12.94 Z-2
X25.894 Y13.182
G3 X25.971 Y13.742 I-0.242 J0.319
G1 X25.957 Y13.761
X25.631 Y14.199
X25.575 Y14.277
X25.266 Y14.726
X25.213 Y14.807
X24.923 Y15.266
X24.876 Y15.344
X24.603 Y15.813
X24.56 Y15.891
X24.305 Y16.369
X24.266 Y16.444
X24.027 Y16.931
X23.993 Y17.003
X23.769 Y17.498
X23.741 Y17.561
X23.531 Y18.063
X23.503 Y18.131
X23.111 Y19.15
X23.101 Y19.176
X22.735 Y20.159
X22.568 Y20.564
X22.389 Y20.94
X22.314 Y21.079
X22.227 Y21.225
X22.139 Y21.36
X22.049 Y21.484
X21.956 Y21.6
X21.859 Y21.71
X21.757 Y21.815
X21.648 Y21.915
X21.533 Y22.012
X21.41 Y22.104
X21.28 Y22.193
X21.141 Y22.278
X20.992 Y22.362
X20.844 Y22.438
X20.451 Y22.616
X20.02 Y22.788
X19.529 Y22.971
X19.525 Y22.973
X18.492 Y23.36
X18.437 Y23.381
X17.926 Y23.587
X17.869 Y23.61
X17.365 Y23.828
X17.299 Y23.857
X16.802 Y24.089
X16.729 Y24.124
X16.24 Y24.372
X16.161 Y24.413
X15.681 Y24.678
X15.601 Y24.724
X15.13 Y25.007
X15.05 Y25.057
X14.589 Y25.359
X14.509 Y25.413
X14.057 Y25.734
X13.978 Y25.792
X13.536 Y26.133
X13.459 Y26.195
X13.029 Y26.554
X12.954 Y26.62
X12.539 Y26.995
X12.467 Y27.063
X12.07 Y27.453
X12.001 Y27.523
X11.621 Y27.927
X11.555 Y28
X11.191 Y28.418
X11.128 Y28.493
X10.781 Y28.925
X10.721 Y29.002
X10.39 Y29.448
X10.333 Y29.528
X10.019 Y29.988
X9.966 Y30.07
X9.668 Y30.544
X9.619 Y30.627
X9.34 Y31.112
X9.293 Y31.197
X9.034 Y31.692
X8.99 Y31.779
X8.751 Y32.281
X8.712 Y32.369
X8.493 Y32.879
X8.457 Y32.968
X8.258 Y33.486
X8.225 Y33.576
X8.046 Y34.101
X8.017 Y34.193
X7.858 Y34.726
X7.832 Y34.819
X7.694 Y35.36
X7.672 Y35.455
X7.554 Y36.003
X7.535 Y36.099
X7.439 Y36.651
X7.424 Y36.747
X7.35 Y37.299
X7.338 Y37.397
X7.286 Y37.949
X7.279 Y38.047
X7.248 Y38.6
X7.245 Y38.698
X7.236 Y39.252
Y39.351
X7.249 Y39.905
X7.253 Y40.004
X7.288 Y40.559
X7.296 Y40.658
X7.353 Y41.214
X7.365 Y41.312
X7.445 Y41.867
X7.461 Y41.965
X7.562 Y42.515
X7.581 Y42.611
X7.703 Y43.155
X7.726 Y43.247
X7.868 Y43.784
X7.893 Y43.872
X8.054 Y44.404
X8.082 Y44.488
X8.262 Y45.014
X8.289 Y45.089
X8.487 Y45.609
X8.512 Y45.673
X8.723 Y46.189
X8.745 Y46.24
X8.969 Y46.752
X8.987 Y46.793
X9.449 Y47.8
X9.655 Y48.26
X9.821 Y48.67
X9.954 Y49.063
X9.996 Y49.212
X10.033 Y49.376
X10.062 Y49.536
X10.083 Y49.693
X10.095 Y49.848
X10.099 Y50.004
X10.096 Y50.136
X10.086 Y50.272
X10.07 Y50.411
X10.051 Y50.528
X9.978 Y50.849
X9.881 Y51.166
X9.749 Y51.517
X9.584 Y51.903
X9.173 Y52.799
X9.16 Y52.827
X8.747 Y53.758
X8.72 Y53.819
X8.527 Y54.289
X8.504 Y54.347
X8.322 Y54.821
X8.297 Y54.89
X8.129 Y55.369
X8.105 Y55.442
X7.952 Y55.926
X7.929 Y56.004
X7.792 Y56.493
X7.771 Y56.576
X7.651 Y57.07
X7.631 Y57.156
X7.528 Y57.656
X7.512 Y57.744
X7.427 Y58.249
X7.413 Y58.339
X7.346 Y58.851
X7.335 Y58.941
X7.287 Y59.456
X7.28 Y59.547
X7.25 Y60.061
X7.247 Y60.152
X7.236 Y60.664
Y60.755
X7.243 Y61.266
X7.246 Y61.357
X7.273 Y61.867
X7.279 Y61.956
X7.324 Y62.465
X7.333 Y62.555
X7.396 Y63.062
X7.409 Y63.152
X7.49 Y63.658
X7.506 Y63.747
X7.606 Y64.252
X7.625 Y64.34
X7.744 Y64.844
X7.766 Y64.93
X7.902 Y65.427
X7.927 Y65.513
X8.08 Y66.003
X8.108 Y66.087
X8.278 Y66.57
X8.309 Y66.653
X8.496 Y67.129
X8.53 Y67.211
X8.733 Y67.679
X8.77 Y67.76
X8.99 Y68.222
X9.03 Y68.302
X9.267 Y68.756
X9.31 Y68.835
X9.564 Y69.283
X9.61 Y69.359
X9.881 Y69.799
X9.929 Y69.874
X10.215 Y70.303
X10.267 Y70.378
X10.567 Y70.795
X10.621 Y70.867
X10.935 Y71.272
X10.991 Y71.341
X11.319 Y71.733
X11.378 Y71.802
X11.72 Y72.181
X11.781 Y72.247
X12.136 Y72.614
X12.2 Y72.678
X12.569 Y73.033
X12.636 Y73.095
X13.018 Y73.437
X13.088 Y73.497
X13.485 Y73.827
X13.556 Y73.884
X13.966 Y74.199
X14.039 Y74.254
X14.459 Y74.553
X14.533 Y74.604
X14.961 Y74.887
X15.036 Y74.934
X15.473 Y75.201
X15.547 Y75.245
X15.993 Y75.497
X16.067 Y75.537
X16.521 Y75.773
X16.592 Y75.809
X17.054 Y76.031
X17.118 Y76.061
X17.587 Y76.27
X17.645 Y76.295
X18.12 Y76.493
X18.186 Y76.52
X19.15 Y76.889
X19.173 Y76.898
X20.107 Y77.246
X20.5 Y77.405
X20.843 Y77.563
X21.164 Y77.736
X21.279 Y77.807
X21.402 Y77.891
X21.517 Y77.976
X21.625 Y78.065
X21.728 Y78.158
X21.826 Y78.255
X21.92 Y78.358
X22.011 Y78.468
X22.1 Y78.584
X22.183 Y78.706
X22.265 Y78.836
X22.335 Y78.959
X22.504 Y79.297
X22.664 Y79.664
X22.828 Y80.087
X23.183 Y81.045
X23.2 Y81.089
X23.58 Y82.058
X23.611 Y82.133
X23.816 Y82.61
X23.844 Y82.673
X24.062 Y83.143
X24.095 Y83.211
X24.327 Y83.674
X24.365 Y83.747
X24.612 Y84.203
X24.655 Y84.279
X24.918 Y84.727
X24.965 Y84.803
X25.245 Y85.242
X25.295 Y85.318
X25.593 Y85.749
X25.646 Y85.824
X25.961 Y86.246
X26.019 Y86.32
X26.35 Y86.731
X26.41 Y86.803
X26.755 Y87.199
X26.817 Y87.268
X27.175 Y87.65
X27.24 Y87.717
X27.612 Y88.085
X27.678 Y88.149
X28.062 Y88.502
X28.131 Y88.563
X28.528 Y88.902
X28.599 Y88.96
X29.009 Y89.285
X29.082 Y89.341
X29.505 Y89.651
X29.58 Y89.704
X30.016 Y90
X30.093 Y90.05
X30.541 Y90.33
X30.619 Y90.378
X31.075 Y90.64
X31.155 Y90.685
X31.618 Y90.93
X31.699 Y90.97
X32.169 Y91.198
X32.252 Y91.236
X32.73 Y91.446
X32.814 Y91.48
X33.299 Y91.673
X33.384 Y91.705
X33.876 Y91.88
X33.962 Y91.908
X34.462 Y92.066
X34.55 Y92.092
X35.057 Y92.231
X35.146 Y92.254
X35.66 Y92.375
X35.75 Y92.395
X36.267 Y92.497
X36.357 Y92.513
X36.874 Y92.595
X36.966 Y92.608
X37.484 Y92.671
X37.576 Y92.681
X38.096 Y92.725
X38.188 Y92.731
X38.709 Y92.756
X38.801 Y92.759
X39.323 Y92.764
X39.416
X39.94 Y92.75
X40.032 Y92.746
X40.557 Y92.712
X40.651 Y92.705
X41.175 Y92.652
X41.268 Y92.64
X41.79 Y92.568
X41.882 Y92.553
X42.399 Y92.461
X42.489 Y92.444
X43.001 Y92.333
X43.088 Y92.313
X43.595 Y92.185
X43.68 Y92.162
X44.182 Y92.015
X44.262 Y91.991
X44.759 Y91.828
X44.832 Y91.802
X45.325 Y91.624
X45.391 Y91.599
X45.879 Y91.406
X45.957 Y91.374
X46.925 Y90.953
X46.972 Y90.932
X47.914 Y90.499
X48.337 Y90.313
X48.717 Y90.162
X49.086 Y90.039
X49.226 Y90.001
X49.38 Y89.966
X49.529 Y89.939
X49.675 Y89.919
X49.818 Y89.907
X49.959 Y89.901
X50.1 Y89.903
X50.242 Y89.911
X50.387 Y89.927
X50.536 Y89.95
X50.687 Y89.98
X50.821 Y90.014
X51.179 Y90.125
X51.546 Y90.264
X51.955 Y90.44
X52.889 Y90.869
X52.923 Y90.884
X53.889 Y91.309
X53.961 Y91.34
X54.449 Y91.537
X54.512 Y91.562
X55.004 Y91.745
X55.075 Y91.77
X55.571 Y91.938
X55.65 Y91.963
X56.152 Y92.115
X56.236 Y92.138
X56.744 Y92.272
X56.831 Y92.294
X57.344 Y92.41
X57.433 Y92.428
X57.952 Y92.526
X58.044 Y92.541
X58.569 Y92.62
X58.663 Y92.632
X59.193 Y92.691
X59.286 Y92.699
X59.818 Y92.738
X59.913 Y92.743
X60.442 Y92.762
X60.536 Y92.763
X61.064 Y92.762
X61.158 Y92.76
X61.685 Y92.739
X61.778 Y92.733
X62.303 Y92.693
X62.396 Y92.684
X62.921 Y92.623
X63.012 Y92.611
X63.535 Y92.531
X63.627 Y92.516
X64.149 Y92.416
X64.24 Y92.397
X64.759 Y92.277
X64.848 Y92.255
X65.363 Y92.117
X65.452 Y92.091
X65.959 Y91.934
X66.046 Y91.906
X66.545 Y91.731
X66.631 Y91.699
X67.123 Y91.507
X67.207 Y91.472
X67.691 Y91.262
X67.774 Y91.224
X68.251 Y90.996
X68.332 Y90.955
X68.801 Y90.709
X68.882 Y90.664
X69.343 Y90.401
X69.422 Y90.353
X69.875 Y90.071
X69.953 Y90.02
X70.394 Y89.722
X70.47 Y89.669
X70.898 Y89.356
X70.971 Y89.3
X71.386 Y88.973
X71.458 Y88.914
X71.86 Y88.572
X71.93 Y88.509
X72.318 Y88.153
X72.386 Y88.088
X72.761 Y87.717
X72.827 Y87.649
X73.188 Y87.263
X73.251 Y87.193
X73.599 Y86.792
X73.659 Y86.721
X73.993 Y86.305
X74.051 Y86.23
X74.369 Y85.802
X74.423 Y85.726
X74.724 Y85.289
X74.775 Y85.212
X75.059 Y84.764
X75.106 Y84.687
X75.372 Y84.231
X75.416 Y84.154
X75.666 Y83.689
X75.704 Y83.614
X75.939 Y83.141
X75.972 Y83.072
X76.193 Y82.59
X76.22 Y82.528
X76.428 Y82.039
X76.458 Y81.966
X76.844 Y80.973
X76.857 Y80.938
X77.217 Y79.967
X77.383 Y79.552
X77.546 Y79.191
X77.724 Y78.856
X77.797 Y78.736
X77.883 Y78.608
X77.971 Y78.489
X78.063 Y78.377
X78.159 Y78.271
X78.259 Y78.17
X78.366 Y78.073
X78.48 Y77.979
X78.601 Y77.889
X78.728 Y77.803
X78.864 Y77.719
X78.993 Y77.647
X79.348 Y77.472
X79.737 Y77.307
X80.186 Y77.135
X81.181 Y76.766
X81.215 Y76.753
X81.716 Y76.559
X81.763 Y76.54
X82.259 Y76.336
X82.32 Y76.311
X82.81 Y76.094
X82.877 Y76.063
X83.359 Y75.833
X83.432 Y75.797
X83.906 Y75.551
X83.983 Y75.51
X84.449 Y75.247
X84.528 Y75.201
X84.986 Y74.921
X85.065 Y74.871
X85.513 Y74.573
X85.59 Y74.519
X86.029 Y74.203
X86.107 Y74.145
X86.536 Y73.81
X86.611 Y73.749
X87.028 Y73.397
X87.101 Y73.332
X87.503 Y72.966
X87.572 Y72.9
X87.958 Y72.52
X88.025 Y72.451
X88.394 Y72.057
X88.458 Y71.986
X88.812 Y71.579
X88.874 Y71.506
X89.212 Y71.085
X89.27 Y71.01
X89.593 Y70.576
X89.648 Y70.498
X89.956 Y70.051
X90.008 Y69.971
X90.3 Y69.51
X90.349 Y69.428
X90.623 Y68.956
X90.669 Y68.874
X90.923 Y68.394
X90.966 Y68.309
X91.201 Y67.822
X91.24 Y67.737
X91.457 Y67.242
X91.493 Y67.156
X91.691 Y66.653
X91.724 Y66.565
X91.902 Y66.055
X91.932 Y65.966
X92.092 Y65.449
X92.118 Y65.357
X92.259 Y64.832
X92.282 Y64.741
X92.403 Y64.209
X92.422 Y64.116
X92.523 Y63.58
X92.539 Y63.486
X92.619 Y62.949
X92.632 Y62.854
X92.691 Y62.317
X92.7 Y62.222
X92.739 Y61.683
X92.744 Y61.588
X92.762 Y61.049
X92.763 Y60.953
X92.761 Y60.413
X92.759 Y60.317
X92.735 Y59.776
X92.729 Y59.68
X92.685 Y59.138
X92.675 Y59.042
X92.61 Y58.5
X92.596 Y58.404
X92.51 Y57.865
X92.493 Y57.771
X92.387 Y57.238
X92.367 Y57.147
X92.241 Y56.62
X92.218 Y56.531
X92.073 Y56.01
X92.048 Y55.926
X91.885 Y55.41
X91.858 Y55.33
X91.677 Y54.82
X91.651 Y54.749
X91.455 Y54.243
X91.431 Y54.184
X91.221 Y53.682
X91.201 Y53.636
X90.981 Y53.137
X90.966 Y53.104
X90.518 Y52.127
X90.322 Y51.686
X90.165 Y51.292
X90.038 Y50.912
X89.999 Y50.768
X89.963 Y50.609
X89.936 Y50.453
X89.916 Y50.3
X89.905 Y50.149
X89.901 Y49.997
X89.904 Y49.869
X89.913 Y49.738
X89.928 Y49.604
X89.946 Y49.491
X90.014 Y49.181
X90.105 Y48.878
X90.228 Y48.543
X90.382 Y48.175
X90.777 Y47.311
X90.783 Y47.296
X91.188 Y46.394
X91.211 Y46.341
X91.403 Y45.886
X91.424 Y45.833
X91.605 Y45.375
X91.629 Y45.311
X91.797 Y44.849
X91.821 Y44.78
X91.974 Y44.313
X91.998 Y44.239
X92.137 Y43.767
X92.159 Y43.689
X92.283 Y43.213
X92.303 Y43.131
X92.411 Y42.649
X92.428 Y42.565
X92.52 Y42.079
X92.535 Y41.992
X92.61 Y41.501
X92.622 Y41.413
X92.68 Y40.916
X92.688 Y40.827
X92.729 Y40.326
X92.735 Y40.237
X92.757 Y39.736
X92.759 Y39.647
X92.764 Y39.147
X92.763 Y39.06
X92.75 Y38.562
X92.747 Y38.474
X92.716 Y37.978
X92.709 Y37.89
X92.662 Y37.396
X92.652 Y37.309
X92.586 Y36.816
X92.574 Y36.73
X92.491 Y36.238
X92.475 Y36.152
X92.375 Y35.661
X92.356 Y35.576
X92.239 Y35.088
X92.217 Y35.004
X92.082 Y34.52
X92.058 Y34.436
X91.907 Y33.959
X91.879 Y33.876
X91.713 Y33.406
X91.682 Y33.325
X91.5 Y32.862
X91.467 Y32.782
X91.269 Y32.326
X91.233 Y32.247
X91.02 Y31.799
X90.981 Y31.721
X90.752 Y31.279
X90.711 Y31.203
X90.465 Y30.768
X90.421 Y30.693
X90.16 Y30.265
X90.113 Y30.192
X89.836 Y29.772
X89.787 Y29.7
X89.496 Y29.291
X89.445 Y29.221
X89.141 Y28.825
X89.086 Y28.755
X88.77 Y28.37
X88.713 Y28.304
X88.384 Y27.931
X88.324 Y27.865
X87.982 Y27.505
X87.92 Y27.442
X87.565 Y27.094
X87.501 Y27.033
X87.134 Y26.697
X87.068 Y26.638
X86.688 Y26.315
X86.619 Y26.258
X86.226 Y25.946
X86.155 Y25.892
X85.75 Y25.594
X85.678 Y25.543
X85.265 Y25.26
X85.192 Y25.212
X84.77 Y24.945
X84.697 Y24.901
X84.268 Y24.649
X84.196 Y24.608
X83.759 Y24.371
X83.69 Y24.335
X83.247 Y24.112
X83.18 Y24.08
X82.731 Y23.87
X82.668 Y23.842
X82.212 Y23.644
X82.159 Y23.622
X81.698 Y23.435
X81.644 Y23.414
X80.712 Y23.06
X80.701 Y23.056
X79.806 Y22.721
X79.441 Y22.57
X79.118 Y22.418
X78.817 Y22.253
X78.71 Y22.186
X78.592 Y22.106
X78.481 Y22.022
X78.375 Y21.935
X78.273 Y21.844
X78.177 Y21.748
X78.085 Y21.649
X77.998 Y21.545
X77.914 Y21.436
X77.847 Y21.34
X77.675 Y21.058
X77.52 Y20.757
X77.365 Y20.407
X77.207 Y20.006
X76.861 Y19.075
X76.849 Y19.041
X76.481 Y18.093
X76.454 Y18.026
X76.258 Y17.559
X76.232 Y17.501
X76.025 Y17.04
X75.992 Y16.971
X75.771 Y16.517
X75.735 Y16.447
X75.5 Y16.001
X75.461 Y15.929
X75.211 Y15.491
X75.168 Y15.419
X74.903 Y14.989
X74.856 Y14.916
X74.576 Y14.494
X74.526 Y14.422
X74.23 Y14.009
X74.177 Y13.937
X73.865 Y13.533
X73.807 Y13.461
X73.478 Y13.066
X73.418 Y12.997
X73.072 Y12.611
X73.009 Y12.544
X72.646 Y12.169
X72.581 Y12.104
X72.205 Y11.742
X72.137 Y11.68
X71.75 Y11.334
X71.681 Y11.275
X71.283 Y10.945
X71.211 Y10.888
X70.802 Y10.573
X70.729 Y10.519
X70.309 Y10.219
X70.234 Y10.168
X69.803 Y9.883
X69.727 Y9.835
X69.285 Y9.566
X69.207 Y9.52
X68.754 Y9.266
X68.674 Y9.223
X68.21 Y8.985
X68.129 Y8.945
X67.656 Y8.723
X67.573 Y8.686
X67.095 Y8.483
X67.012 Y8.449
X66.528 Y8.263
X66.443 Y8.232
X65.955 Y8.065
X65.87 Y8.037
X65.376 Y7.887
X65.289 Y7.863
X64.789 Y7.73
X64.703 Y7.709
X64.198 Y7.595
X64.109 Y7.576
X63.599 Y7.48
X63.509 Y7.465
X62.994 Y7.387
X62.903 Y7.375
X62.384 Y7.316
X62.293 Y7.307
X61.774 Y7.267
X61.682 Y7.262
X61.164 Y7.241
X61.073 Y7.239
X60.556 Y7.237
X60.464 Y7.239
X59.948 Y7.256
X59.857 Y7.26
X59.342 Y7.296
X59.25 Y7.305
X58.737 Y7.36
X58.646 Y7.371
X58.133 Y7.445
X58.042 Y7.46
X57.53 Y7.553
X57.441 Y7.571
X56.931 Y7.683
X56.845 Y7.704
X56.339 Y7.834
X56.255 Y7.857
X55.755 Y8.004
X55.675 Y8.03
X55.181 Y8.193
X55.108 Y8.219
X54.62 Y8.398
X54.556 Y8.422
X54.073 Y8.614
X54.019 Y8.637
X53.539 Y8.84
X53.489 Y8.863
X51.64 Y9.697
X51.279 Y9.84
X50.916 Y9.96
X50.776 Y9.998
X50.623 Y10.033
X50.476 Y10.061
X50.333 Y10.08
X50.188 Y10.093
X50.044 Y10.099
X49.901 Y10.098
X49.758 Y10.089
X49.615 Y10.074
X49.468 Y10.051
X49.317 Y10.021
X49.182 Y9.988
X48.818 Y9.875
X48.442 Y9.732
X48.023 Y9.551
X47.558 Y9.338
X47.551 Y9.335
X46.571 Y8.89
X46.523 Y8.869
X46.029 Y8.657
X45.974 Y8.634
X45.477 Y8.435
X45.408 Y8.408
X44.905 Y8.224
X44.831 Y8.198
X44.323 Y8.029
X44.242 Y8.004
X43.729 Y7.852
X43.642 Y7.829
X43.122 Y7.696
X43.032 Y7.674
X42.506 Y7.56
X42.414 Y7.542
X41.881 Y7.447
X41.787 Y7.432
X41.247 Y7.358
X41.151 Y7.346
X40.607 Y7.292
X40.511 Y7.284
X39.967 Y7.252
X39.871 Y7.248
X39.328 Y7.236
X39.232 Y7.235
X38.69 Y7.244
X38.594 Y7.248
X38.054 Y7.278
X37.958 Y7.285
X37.42 Y7.335
X37.324 Y7.346
X36.788 Y7.417
X36.693 Y7.432
X36.158 Y7.524
X36.066 Y7.541
X35.532 Y7.654
X35.439 Y7.675
X34.909 Y7.808
X34.817 Y7.833
X34.294 Y7.986
X34.203 Y8.014
X33.689 Y8.186
X33.6 Y8.217
X33.093 Y8.407
X33.006 Y8.442
X32.507 Y8.651
X32.421 Y8.689
X31.931 Y8.916
X31.846 Y8.957
X31.364 Y9.203
X31.28 Y9.248
X30.806 Y9.513
X30.724 Y9.561
X30.257 Y9.845
X30.177 Y9.896
X29.721 Y10.198
X29.643 Y10.253
X29.201 Y10.571
X29.125 Y10.628
X28.697 Y10.961
X28.623 Y11.021
X28.209 Y11.37
X28.137 Y11.432
X27.738 Y11.796
X27.668 Y11.862
X27.282 Y12.241
X27.215 Y12.31
X26.843 Y12.704
X26.778 Y12.775
X26.421 Y13.185
X26.359 Y13.259
X26.016 Y13.685
X25.971 Y13.742
G3 X25.41 Y13.819 I-0.319 J-0.242
G1 X25.092 Y13.577
X25.029 Y13.53 Z-1.992
X24.97 Y13.485 Z-1.97
X24.915 Y13.443 Z-1.933
X24.866 Y13.406 Z-1.883
X24.827 Y13.376 Z-1.822
X24.797 Y13.354 Z-1.753
X24.779 Y13.34 Z-1.678
X24.773 Y13.335 Z-1.6
G0 Z5
X25.257 Y12.698
G1 Z0 F100
Z-2.6
X25.263 Y12.703 Z-2.678
X25.281 Y12.717 Z-2.753
X25.31 Y12.739 Z-2.822
X25.35 Y12.769 Z-2.883
X25.398 Y12.806 Z-2.933
X25.453 Y12.847 Z-2.97
X25.513 Y12.893 Z-2.992
X25.575 Y12.94 Z-3
X25.894 Y13.182
G3 X25.971 Y13.742 I-0.242 J0.319
G1 X25.957 Y13.761
X25.631 Y14.199
X25.575 Y14.277
X25.266 Y14.726
X25.213 Y14.807
X24.923 Y15.266
X24.876 Y15.344
X24.603 Y15.813
X24.56 Y15.891
X24.305 Y16.369
X24.266 Y16.444
X24.027 Y16.931
X23.993 Y17.003
X23.769 Y17.498
X23.741 Y17.561
X23.531 Y18.063
X23.503 Y18.131
X23.111 Y19.15
X23.101 Y19.176
X22.735 Y20.159
X22.568 Y20.564
X22.389 Y20.94
X22.314 Y21.079
X22.227 Y21.225
X22.139 Y21.36
X22.049 Y21.484
X21.956 Y21.6
X21.859 Y21.71
X21.757 Y21.815
X21.648 Y21.915
X21.533 Y22.012
X21.41 Y22.104
X21.28 Y22.193
X21.141 Y22.278
X20.992 Y22.362
X20.844 Y22.438
X20.451 Y22.616
X20.02 Y22.788
X19.529 Y22.971
X19.525 Y22.973
X18.492 Y23.36
X18.437 Y23.381
X17.926 Y23.587
X17.869 Y23.61
X17.365 Y23.828
X17.299 Y23.857
X16.802 Y24.089
X16.729 Y24.124
X16.24 Y24.372
X16.161 Y24.413
X15.681 Y24.678
X15.601 Y24.724
X15.13 Y25.007
X15.05 Y25.057
X14.589 Y25.359
X14.509 Y25.413
X14.057 Y25.734
X13.978 Y25.792
X13.536 Y26.133
X13.459 Y26.195
X13.029 Y26.554
X12.954 Y26.62
X12.539 Y26.995
X12.467 Y27.063
X12.07 Y27.453
X12.001 Y27.523
X11.621 Y27.927
X11.555 Y28
X11.191 Y28.418
X11.128 Y28.493
X10.781 Y28.925
X10.721 Y29.002
X10.39 Y29.448
X10.333 Y29.528
X10.019 Y29.988
X9.966 Y30.07
X9.668 Y30.544
X9.619 Y30.627
X9.34 Y31.112
X9.293 Y31.197
X9.034 Y31.692
X8.99 Y31.779
X8.751 Y32.281
X8.712 Y32.369
X8.493 Y32.879
X8.457 Y32.968
X8.258 Y33.486
X8.225 Y33.576
X8.046 Y34.101
X8.017 Y34.193
X7.858 Y34.726
X7.832 Y34.819
X7.694 Y35.36
X7.672 Y35.455
X7.554 Y36.003
X7.535 Y36.099
X7.439 Y36.651
X7.424 Y36.747
X7.35 Y37.299
X7.338 Y37.397
X7.286 Y37.949
X7.279 Y38.047
X7.248 Y38.6
X7.245 Y38.698
X7.236 Y39.252
Y39.351
X7.249 Y39.905
X7.253 Y40.004
X7.288 Y40.559
X7.296 Y40.658
X7.353 Y41.214
X7.365 Y41.312
X7.445 Y41.867
X7.461 Y41.965
X7.562 Y42.515
X7.581 Y42.611
X7.703 Y43.155
X7.726 Y43.247
X7.868 Y43.784
X7.893 Y43.872
X8.054 Y44.404
X8.082 Y44.488
X8.262 Y45.014
X8.289 Y45.089
X8.487 Y45.609
X8.512 Y45.673
X8.723 Y46.189
X8.745 Y46.24
X8.969 Y46.752
X8.987 Y46.793
X9.449 Y47.8
X9.655 Y48.26
X9.821 Y48.67
X9.954 Y49.063
X9.996 Y49.212
X10.033 Y49.376
X10.062 Y49.536
X10.083 Y49.693
X10.095 Y49.848
X10.099 Y50.004
X10.096 Y50.136
X10.086 Y50.272
X10.07 Y50.411
X10.051 Y50.528
X9.978 Y50.849
X9.881 Y51.166
X9.749 Y51.517
X9.584 Y51.903
X9.173 Y52.799
X9.16 Y52.827
X8.747 Y53.758
X8.72 Y53.819
X8.527 Y54.289
X8.504 Y54.347
X8.322 Y54.821
X8.297 Y54.89
X8.129 Y55.369
X8.105 Y55.442
X7.952 Y55.926
X7.929 Y56.004
X7.792 Y56.493
X7.771 Y56.576
X7.651 Y57.07
X7.631 Y57.156
X7.528 Y57.656
X7.512 Y57.744
X7.427 Y58.249
X7.413 Y58.339
X7.346 Y58.851
X7.335 Y58.941
X7.287 Y59.456
X7.28 Y59.547
X7.25 Y60.061
X7.247 Y60.152
X7.236 Y60.664
Y60.755
X7.243 Y61.266
X7.246 Y61.357
X7.273 Y61.867
X7.279 Y61.956
X7.324 Y62.465
X7.333 Y62.555
X7.396 Y63.062
X7.409 Y63.152
X7.49 Y63.658
X7.506 Y63.747
X7.606 Y64.252
X7.625 Y64.34
X7.744 Y64.844
X7.766 Y64.93
X7.902 Y65.427
X7.927 Y65.513
X8.08 Y66.003
X8.108 Y66.087
X8.278 Y66.57
X8.309 Y66.653
X8.496 Y67.129
X8.53 Y67.211
X8.733 Y67.679
X8.77 Y67.76
X8.99 Y68.222
X9.03 Y68.302
X9.267 Y68.756
X9.31 Y68.835
X9.564 Y69.283
X9.61 Y69.359
X9.881 Y69.799
X9.929 Y69.874
X10.215 Y70.303
X10.267 Y70.378
X10.567 Y70.795
X10.621 Y70.867
X10.935 Y71.272
X10.991 Y71.341
X11.319 Y71.733
X11.378 Y71.802
X11.72 Y72.181
X11.781 Y72.247
X12.136 Y72.614
X12.2 Y72.678
X12.569 Y73.033
X12.636 Y73.095
X13.018 Y73.437
X13.088 Y73.497
X13.485 Y73.827
X13.556 Y73.884
X13.966 Y74.199
X14.039 Y74.254
X14.459 Y74.553
X14.533 Y74.604
X14.961 Y74.887
X15.036 Y74.934
X15.473 Y75.201
X15.547 Y75.245
X15.993 Y75.497
X16.067 Y75.537
X16.521 Y75.773
X16.592 Y75.809
X17.054 Y76.031
X17.118 Y76.061
X17.587 Y76.27
X17.645 Y76.295
X18.12 Y76.493
X18.186 Y76.52
X19.15 Y76.889
X19.173 Y76.898
X20.107 Y77.246
X20.5 Y77.405
X20.843 Y77.563
X21.164 Y77.736
X21.279 Y77.807
X21.402 Y77.891
X21.517 Y77.976
X21.625 Y78.065
X21.728 Y78.158
X21.826 Y78.255
X21.92 Y78.358
X22.011 Y78.468
X22.1 Y78.584
X22.183 Y78.706
X22.265 Y78.836
X22.335 Y78.959
X22.504 Y79.297
X22.664 Y79.664
X22.828 Y80.087
X23.183 Y81.045
X23.2 Y81.089
X23.58 Y82.058
X23.611 Y82.133
X23.816 Y82.61
X23.844 Y82.673
X24.062 Y83.143
X24.095 Y83.211
X24.327 Y83.674
X24.365 Y83.747
X24.612 Y84.203
X24.655 Y84.279
X24.918 Y84.727
X24.965 Y84.803
X25.245 Y85.242
X25.295 Y85.318
X25.593 Y85.749
X25.646 Y85.824
X25.961 Y86.246
X26.019 Y86.32
X26.35 Y86.731
X26.41 Y86.803
X26.755 Y87.199
X26.817 Y87.268
X27.175 Y87.65
X27.24 Y87.717
X27.612 Y88.085
X27.678 Y88.149
X28.062 Y88.502
X28.131 Y88.563
X28.528 Y88.902
X28.599 Y88.96
X29.009 Y89.285
X29.082 Y89.341
X29.505 Y89.651
X29.58 Y89.704
X30.016 Y90
X30.093 Y90.05
X30.541 Y90.33
X30.619 Y90.378
X31.075 Y90.64
X31.155 Y90.685
X31.618 Y90.93
X31.699 Y90.97
X32.169 Y91.198
X32.252 Y91.236
X32.73 Y91.446
X32.814 Y91.48
X33.299 Y91.673
X33.384 Y91.705
X33.876 Y91.88
X33.962 Y91.908
X34.462 Y92.066
X34.55 Y92.092
X35.057 Y92.231
X35.146 Y92.254
X35.66 Y92.375
X35.75 Y92.395
X36.267 Y92.497
X36.357 Y92.513
X36.874 Y92.595
X36.966 Y92.608
X37.484 Y92.671
X37.576 Y92.681
X38.096 Y92.725
X38.188 Y92.731
X38.709 Y92.756
X38.801 Y92.759
X39.323 Y92.764
X39.416
X39.94 Y92.75
X40.032 Y92.746
X40.557 Y92.712
X40.651 Y92.705
X41.175 Y92.652
X41.268 Y92.64
X41.79 Y92.568
X41.882 Y92.553
X42.399 Y92.461
X42.489 Y92.444
X43.001 Y92.333
X43.088 Y92.313
X43.595 Y92.185
X43.68 Y92.162
X44.182 Y92.015
X44.262 Y91.991
X44.759 Y91.828
X44.832 Y91.802
X45.325 Y91.624
X45.391 Y91.599
X45.879 Y91.406
X45.957 Y91.374
X46.925 Y90.953
X46.972 Y90.932
X47.914 Y90.499
X48.337 Y90.313
X48.717 Y90.162
X49.086 Y90.039
X49.226 Y90.001
X49.38 Y89.966
X49.529 Y89.939
X49.675 Y89.919
X49.818 Y89.907
X49.959 Y89.901
X50.1 Y89.903
X50.242 Y89.911
X50.387 Y89.927
X50.536 Y89.95
X50.687 Y89.98
X50.821 Y90.014
X51.179 Y90.125
X51.546 Y90.264
X51.955 Y90.44
X52.889 Y90.869
X52.923 Y90.884
X53.889 Y91.309
X53.961 Y91.34
X54.449 Y91.537
X54.512 Y91.562
X55.004 Y91.745
X55.075 Y91.77
X55.571 Y91.938
X55.65 Y91.963
X56.152 Y92.115
X56.236 Y92.138
X56.744 Y92.272
X56.831 Y92.294
X57.344 Y92.41
X57.433 Y92.428
X57.952 Y92.526
X58.044 Y92.541
X58.569 Y92.62
X58.663 Y92.632
X59.193 Y92.691
X59.286 Y92.699
X59.818 Y92.738
X59.913 Y92.743
X60.442 Y92.762
X60.536 Y92.763
X61.064 Y92.762
X61.158 Y92.76
X61.685 Y92.739
X61.778 Y92.733
X62.303 Y92.693
X62.396 Y92.684
X62.921 Y92.623
X63.012 Y92.611
X63.535 Y92.531
X63.627 Y92.516
X64.149 Y92.416
X64.24 Y92.397
X64.759 Y92.277
X64.848 Y92.255
X65.363 Y92.117
X65.452 Y92.091
X65.959 Y91.934
X66.046 Y91.906
X66.545 Y91.731
X66.631 Y91.699
X67.123 Y91.507
X67.207 Y91.472
X67.691 Y91.262
X67.774 Y91.224
X68.251 Y90.996
X68.332 Y90.955
X68.801 Y90.709
X68.882 Y90.664
X69.343 Y90.401
X69.422 Y90.353
X69.875 Y90.071
X69.953 Y90.02
X70.394 Y89.722
X70.47 Y89.669
X70.898 Y89.356
X70.971 Y89.3
X71.386 Y88.973
X71.458 Y88.914
X71.86 Y88.572
X71.93 Y88.509
X72.318 Y88.153
X72.386 Y88.088
X72.761 Y87.717
X72.827 Y87.649
X73.188 Y87.263
X73.251 Y87.193
X73.599 Y86.792
X73.659 Y86.721
X73.993 Y86.305
X74.051 Y86.23
X74.369 Y85.802
X74.423 Y85.726
X74.724 Y85.289
X74.775 Y85.212
X75.059 Y84.764
X75.106 Y84.687
X75.372 Y84.231
X75.416 Y84.154
X75.666 Y83.689
X75.704 Y83.614
X75.939 Y83.141
X75.972 Y83.072
X76.193 Y82.59
X76.22 Y82.528
X76.428 Y82.039
X76.458 Y81.966
X76.844 Y80.973
X76.857 Y80.938
X77.217 Y79.967
X77.383 Y79.552
X77.546 Y79.191
X77.724 Y78.856
X77.797 Y78.736
X77.883 Y78.608
X77.971 Y78.489
X78.063 Y78.377
X78.159 Y78.271
X78.259 Y78.17
X78.366 Y78.073
X78.48 Y77.979
X78.601 Y77.889
X78.728 Y77.803
X78.864 Y77.719
X78.993 Y77.647
X79.348 Y77.472
X79.737 Y77.307
X80.186 Y77.135
X81.181 Y76.766
X81.215 Y76.753
X81.716 Y76.559
X81.763 Y76.54
X82.259 Y76.336
X82.32 Y76.311
X82.81 Y76.094
X82.877 Y76.063
X83.359 Y75.833
X83.432 Y75.797
X83.906 Y75.551
X83.983 Y75.51
X84.449 Y75.247
X84.528 Y75.201
X84.986 Y74.921
X85.065 Y74.871
X85.513 Y74.573
X85.59 Y74.519
X86.029 Y74.203
X86.107 Y74.145
X86.536 Y73.81
X86.611 Y73.749
X87.028 Y73.397
X87.101 Y73.332
X87.503 Y72.966
X87.572 Y72.9
X87.958 Y72.52
X88.025 Y72.451
X88.394 Y72.057
X88.458 Y71.986
X88.812 Y71.579
X88.874 Y71.506
X89.212 Y71.085
X89.27 Y71.01
X89.593 Y70.576
X89.648 Y70.498
X89.956 Y70.051
X90.008 Y69.971
X90.3 Y69.51
X90.349 Y69.428
X90.623 Y68.956
X90.669 Y68.874
X90.923 Y68.394
X90.966 Y68.309
X91.201 Y67.822
X91.24 Y67.737
X91.457 Y67.242
X91.493 Y67.156
X91.691 Y66.653
X91.724 Y66.565
X91.902 Y66.055
X91.932 Y65.966
X92.092 Y65.449
X92.118 Y65.357
X92.259 Y64.832
X92.282 Y64.741
X92.403 Y64.209
X92.422 Y64.116
X92.523 Y63.58
X92.539 Y63.486
X92.619 Y62.949
X92.632 Y62.854
X92.691 Y62.317
X92.7 Y62.222
X92.739 Y61.683
X92.744 Y61.588
X92.762 Y61.049
X92.763 Y60.953
X92.761 Y60.413
X92.759 Y60.317
X92.735 Y59.776
X92.729 Y59.68
X92.685 Y59.138
X92.675 Y59.042
X92.61 Y58.5
X92.596 Y58.404
X92.51 Y57.865
X92.493 Y57.771
X92.387 Y57.238
X92.367 Y57.147
X92.241 Y56.62
X92.218 Y56.531
X92.073 Y56.01
X92.048 Y55.926
X91.885 Y55.41
X91.858 Y55.33
X91.677 Y54.82
X91.651 Y54.749
X91.455 Y54.243
X91.431 Y54.184
X91.221 Y53.682
X91.201 Y53.636
X90.981 Y53.137
X90.966 Y53.104
X90.518 Y52.127
X90.322 Y51.686
X90.165 Y51.292
X90.038 Y50.912
X89.999 Y50.768
X89.963 Y50.609
X89.936 Y50.453
X89.916 Y50.3
X89.905 Y50.149
X89.901 Y49.997
X89.904 Y49.869
X89.913 Y49.738
X89.928 Y49.604
X89.946 Y49.491
X90.014 Y49.181
X90.105 Y48.878
X90.228 Y48.543
X90.382 Y48.175
X90.777 Y47.311
X90.783 Y47.296
X91.188 Y46.394
X91.211 Y46.341
X91.403 Y45.886
X91.424 Y45.833
X91.605 Y45.375
X91.629 Y45.311
X91.797 Y44.849
X91.821 Y44.78
X91.974 Y44.313
X91.998 Y44.239
X92.137 Y43.767
X92.159 Y43.689
X92.283 Y43.213
X92.303 Y43.131
X92.411 Y42.649
X92.428 Y42.565
X92.52 Y42.079
X92.535 Y41.992
X92.61 Y41.501
X92.622 Y41.413
X92.68 Y40.916
X92.688 Y40.827
X92.729 Y40.326
X92.735 Y40.237
X92.757 Y39.736
X92.759 Y39.647
X92.764 Y39.147
X92.763 Y39.06
X92.75 Y38.562
X92.747 Y38.474
X92.716 Y37.978
X92.709 Y37.89
X92.662 Y37.396
X92.652 Y37.309
X92.586 Y36.816
X92.574 Y36.73
X92.491 Y36.238
X92.475 Y36.152
X92.375 Y35.661
X92.356 Y35.576
X92.239 Y35.088
X92.217 Y35.004
X92.082 Y34.52
X92.058 Y34.436
X91.907 Y33.959
X91.879 Y33.876
X91.713 Y33.406
X91.682 Y33.325
X91.5 Y32.862
X91.467 Y32.782
X91.269 Y32.326
X91.233 Y32.247
X91.02 Y31.799
X90.981 Y31.721
X90.752 Y31.279
X90.711 Y31.203
X90.465 Y30.768
X90.421 Y30.693
X90.16 Y30.265
X90.113 Y30.192
X89.836 Y29.772
X89.787 Y29.7
X89.496 Y29.291
X89.445 Y29.221
X89.141 Y28.825
X89.086 Y28.755
X88.77 Y28.37
X88.713 Y28.304
X88.384 Y27.931
X88.324 Y27.865
X87.982 Y27.505
X87.92 Y27.442
X87.565 Y27.094
X87.501 Y27.033
X87.134 Y26.697
X87.068 Y26.638
X86.688 Y26.315
X86.619 Y26.258
X86.226 Y25.946
X86.155 Y25.892
X85.75 Y25.594
X85.678 Y25.543
X85.265 Y25.26
X85.192 Y25.212
X84.77 Y24.945
X84.697 Y24.901
X84.268 Y24.649
X84.196 Y24.608
X83.759 Y24.371
X83.69 Y24.335
X83.247 Y24.112
X83.18 Y24.08
X82.731 Y23.87
X82.668 Y23.842
X82.212 Y23.644
X82.159 Y23.622
X81.698 Y23.435
X81.644 Y23.414
X80.712 Y23.06
X80.701 Y23.056
X79.806 Y22.721
X79.441 Y22.57
X79.118 Y22.418
X78.817 Y22.253
X78.71 Y22.186
X78.592 Y22.106
X78.481 Y22.022
X78.375 Y21.935
X78.273 Y21.844
X78.177 Y21.748
X78.085 Y21.649
X77.998 Y21.545
X77.914 Y21.436
X77.847 Y21.34
X77.675 Y21.058
X77.52 Y20.757
X77.365 Y20.407
X77.207 Y20.006
X76.861 Y19.075
X76.849 Y19.041
X76.481 Y18.093
X76.454 Y18.026
X76.258 Y17.559
X76.232 Y17.501
X76.025 Y17.04
X75.992 Y16.971
X75.771 Y16.517
X75.735 Y16.447
X75.5 Y16.001
X75.461 Y15.929
X75.211 Y15.491
X75.168 Y15.419
X74.903 Y14.989
X74.856 Y14.916
X74.576 Y14.494
X74.526 Y14.422
X74.23 Y14.009
X74.177 Y13.937
X73.865 Y13.533
X73.807 Y13.461
X73.478 Y13.066
X73.418 Y12.997
X73.072 Y12.611
X73.009 Y12.544
X72.646 Y12.169
X72.581 Y12.104
X72.205 Y11.742
X72.137 Y11.68
X71.75 Y11.334
X71.681 Y11.275
X71.283 Y10.945
X71.211 Y10.888
X70.802 Y10.573
X70.729 Y10.519
X70.309 Y10.219
X70.234 Y10.168
X69.803 Y9.883
X69.727 Y9.835
X69.285 Y9.566
X69.207 Y9.52
X68.754 Y9.266
X68.674 Y9.223
X68.21 Y8.985
X68.129 Y8.945
X67.656 Y8.723
X67.573 Y8.686
X67.095 Y8.483
X67.012 Y8.449
X66.528 Y8.263
X66.443 Y8.232
X65.955 Y8.065
X65.87 Y8.037
X65.376 Y7.887
X65.289 Y7.863
X64.789 Y7.73
X64.703 Y7.709
X64.198 Y7.595
X64.109 Y7.576
X63.599 Y7.48
X63.509 Y7.465
X62.994 Y7.387
X62.903 Y7.375
X62.384 Y7.316
X62.293 Y7.307
X61.774 Y7.267
X61.682 Y7.262
X61.164 Y7.241
X61.073 Y7.239
X60.556 Y7.237
X60.464 Y7.239
X59.948 Y7.256
X59.857 Y7.26
X59.342 Y7.296
X59.25 Y7.305
X58.737 Y7.36
X58.646 Y7.371
X58.133 Y7.445
X58.042 Y7.46
X57.53 Y7.553
X57.441 Y7.571
X56.931 Y7.683
X56.845 Y7.704
X56.339 Y7.834
X56.255 Y7.857
X55.755 Y8.004
X55.675 Y8.03
X55.181 Y8.193
X55.108 Y8.219
X54.62 Y8.398
X54.556 Y8.422
X54.073 Y8.614
X54.019 Y8.637
X53.539 Y8.84
X53.489 Y8.863
X51.64 Y9.697
X51.279 Y9.84
X50.916 Y9.96
X50.776 Y9.998
X50.623 Y10.033
X50.476 Y10.061
X50.333 Y10.08
X50.188 Y10.093
X50.044 Y10.099
X49.901 Y10.098
X49.758 Y10.089
X49.615 Y10.074
X49.468 Y10.051
X49.317 Y10.021
X49.182 Y9.988
X48.818 Y9.875
X48.442 Y9.732
X48.023 Y9.551
X47.558 Y9.338
X47.551 Y9.335
X46.571 Y8.89
X46.523 Y8.869
X46.029 Y8.657
X45.974 Y8.634
X45.477 Y8.435
X45.408 Y8.408
X44.905 Y8.224
X44.831 Y8.198
X44.323 Y8.029
X44.242 Y8.004
X43.729 Y7.852
X43.642 Y7.829
X43.122 Y7.696
X43.032 Y7.674
X42.506 Y7.56
X42.414 Y7.542
X41.881 Y7.447
X41.787 Y7.432
X41.247 Y7.358
X41.151 Y7.346
X40.607 Y7.292
X40.511 Y7.284
X39.967 Y7.252
X39.871 Y7.248
X39.328 Y7.236
X39.232 Y7.235
X38.69 Y7.244
X38.594 Y7.248
X38.054 Y7.278
X37.958 Y7.285
X37.42 Y7.335
X37.324 Y7.346
X36.788 Y7.417
X36.693 Y7.432
X36.158 Y7.524
X36.066 Y7.541
X35.532 Y7.654
X35.439 Y7.675
X34.909 Y7.808
X34.817 Y7.833
X34.294 Y7.986
X34.203 Y8.014
X33.689 Y8.186
X33.6 Y8.217
X33.093 Y8.407
X33.006 Y8.442
X32.507 Y8.651
X32.421 Y8.689
X31.931 Y8.916
X31.846 Y8.957
X31.364 Y9.203
X31.28 Y9.248
X30.806 Y9.513
X30.724 Y9.561
X30.257 Y9.845
X30.177 Y9.896
X29.721 Y10.198
X29.643 Y10.253
X29.201 Y10.571
X29.125 Y10.628
X28.697 Y10.961
X28.623 Y11.021
X28.209 Y11.37
X28.137 Y11.432
X27.738 Y11.796
X27.668 Y11.862
X27.282 Y12.241
X27.215 Y12.31
X26.843 Y12.704
X26.778 Y12.775
X26.421 Y13.185
X26.359 Y13.259
X26.016 Y13.685
X25.971 Y13.742
G3 X25.41 Y13.819 I-0.319 J-0.242
G1 X25.092 Y13.577
X25.029 Y13.53 Z-2.992
X24.97 Y13.485 Z-2.97
X24.915 Y13.443 Z-2.933
X24.866 Y13.406 Z-2.883
X24.827 Y13.376 Z-2.822
X24.797 Y13.354 Z-2.753
X24.779 Y13.34 Z-2.678
X24.773 Y13.335 Z-2.6
G0 Z5
X25.257 Y12.698
G1 Z-1 F100
Z-3.6
X25.263 Y12.703 Z-3.678
X25.281 Y12.717 Z-3.753
X25.31 Y12.739 Z-3.822
X25.35 Y12.769 Z-3.883
X25.398 Y12.806 Z-3.933
X25.453 Y12.847 Z-3.97
X25.513 Y12.893 Z-3.992
X25.575 Y12.94 Z-4
X25.894 Y13.182
G3 X25.971 Y13.742 I-0.242 J0.319
G1 X25.957 Y13.761
X25.631 Y14.199
X25.575 Y14.277
X25.266 Y14.726
X25.213 Y14.807
X24.923 Y15.266
X24.876 Y15.344
X24.603 Y15.813
X24.56 Y15.891
X24.305 Y16.369
X24.266 Y16.444
X24.027 Y16.931
X23.993 Y17.003
X23.769 Y17.498
X23.741 Y17.561
X23.531 Y18.063
X23.503 Y18.131
X23.111 Y19.15
X23.101 Y19.176
X22.735 Y20.159
X22.568 Y20.564
X22.389 Y20.94
X22.314 Y21.079
X22.227 Y21.225
X22.139 Y21.36
X22.049 Y21.484
X21.956 Y21.6
X21.859 Y21.71
X21.757 Y21.815
X21.648 Y21.915
X21.533 Y22.012
X21.41 Y22.104
X21.28 Y22.193
X21.141 Y22.278
X20.992 Y22.362
X20.844 Y22.438
X20.451 Y22.616
X20.02 Y22.788
X19.529 Y22.971
X19.525 Y22.973
X18.492 Y23.36
X18.437 Y23.381
X17.926 Y23.587
X17.869 Y23.61
X17.365 Y23.828
X17.299 Y23.857
X16.802 Y24.089
X16.729 Y24.124
X16.24 Y24.372
X16.161 Y24.413
X15.681 Y24.678
X15.601 Y24.724
X15.13 Y25.007
X15.05 Y25.057
X14.589 Y25.359
X14.509 Y25.413
X14.057 Y25.734
X13.978 Y25.792
X13.536 Y26.133
X13.459 Y26.195
X13.029 Y26.554
X12.954 Y26.62
X12.539 Y26.995
X12.467 Y27.063
X12.07 Y27.453
X12.001 Y27.523
X11.621 Y27.927
X11.555 Y28
X11.191 Y28.418
X11.128 Y28.493
X10.781 Y28.925
X10.721 Y29.002
X10.39 Y29.448
X10.333 Y29.528
X10.019 Y29.988
X9.966 Y30.07
X9.668 Y30.544
X9.619 Y30.627
X9.34 Y31.112
X9.293 Y31.197
X9.034 Y31.692
X8.99 Y31.779
X8.751 Y32.281
X8.712 Y32.369
X8.493 Y32.879
X8.457 Y32.968
X8.258 Y33.486
X8.225 Y33.576
X8.046 Y34.101
X8.017 Y34.193
X7.858 Y34.726
X7.832 Y34.819
X7.694 Y35.36
X7.672 Y35.455
X7.554 Y36.003
X7.535 Y36.099
X7.439 Y36.651
X7.424 Y36.747
X7.35 Y37.299
X7.338 Y37.397
X7.286 Y37.949
X7.279 Y38.047
X7.248 Y38.6
X7.245 Y38.698
X7.236 Y39.252
Y39.351
X7.249 Y39.905
X7.253 Y40.004
X7.288 Y40.559
X7.296 Y40.658
X7.353 Y41.214
X7.365 Y41.312
X7.445 Y41.867
X7.461 Y41.965
X7.562 Y42.515
X7.581 Y42.611
X7.703 Y43.155
X7.726 Y43.247
X7.868 Y43.784
X7.893 Y43.872
X8.054 Y44.404
X8.082 Y44.488
X8.262 Y45.014
X8.289 Y45.089
X8.487 Y45.609
X8.512 Y45.673
X8.723 Y46.189
X8.745 Y46.24
X8.969 Y46.752
X8.987 Y46.793
X9.449 Y47.8
X9.655 Y48.26
X9.821 Y48.67
X9.954 Y49.063
X9.996 Y49.212
X10.033 Y49.376
X10.062 Y49.536
X10.083 Y49.693
X10.095 Y49.848
X10.099 Y50.004
X10.096 Y50.136
X10.086 Y50.272
X10.07 Y50.411
X10.051 Y50.528
X9.978 Y50.849
X9.881 Y51.166
X9.749 Y51.517
X9.584 Y51.903
X9.173 Y52.799
X9.16 Y52.827
X8.747 Y53.758
X8.72 Y53.819
X8.527 Y54.289
X8.504 Y54.347
X8.322 Y54.821
X8.297 Y54.89
X8.129 Y55.369
X8.105 Y55.442
X7.952 Y55.926
X7.929 Y56.004
X7.792 Y56.493
X7.771 Y56.576
X7.651 Y57.07
X7.631 Y57.156
X7.528 Y57.656
X7.512 Y57.744
X7.427 Y58.249
X7.413 Y58.339
X7.346 Y58.851
X7.335 Y58.941
X7.287 Y59.456
X7.28 Y59.547
X7.25 Y60.061
X7.247 Y60.152
X7.236 Y60.664
Y60.755
X7.243 Y61.266
X7.246 Y61.357
X7.273 Y61.867
X7.279 Y61.956
X7.324 Y62.465
X7.333 Y62.555
X7.396 Y63.062
X7.409 Y63.152
X7.49 Y63.658
X7.506 Y63.747
X7.606 Y64.252
X7.625 Y64.34
X7.744 Y64.844
X7.766 Y64.93
X7.902 Y65.427
X7.927 Y65.513
X8.08 Y66.003
X8.108 Y66.087
X8.278 Y66.57
X8.309 Y66.653
X8.496 Y67.129
X8.53 Y67.211
X8.733 Y67.679
X8.77 Y67.76
X8.99 Y68.222
X9.03 Y68.302
X9.267 Y68.756
X9.31 Y68.835
X9.564 Y69.283
X9.61 Y69.359
X9.881 Y69.799
X9.929 Y69.874
X10.215 Y70.303
X10.267 Y70.378
X10.567 Y70.795
X10.621 Y70.867
X10.935 Y71.272
X10.991 Y71.341
X11.319 Y71.733
X11.378 Y71.802
X11.72 Y72.181
X11.781 Y72.247
X12.136 Y72.614
X12.2 Y72.678
X12.569 Y73.033
X12.636 Y73.095
X13.018 Y73.437
X13.088 Y73.497
X13.485 Y73.827
X13.556 Y73.884
X13.966 Y74.199
X14.039 Y74.254
X14.459 Y74.553
X14.533 Y74.604
X14.961 Y74.887
X15.036 Y74.934
X15.473 Y75.201
X15.547 Y75.245
X15.993 Y75.497
X16.067 Y75.537
X16.521 Y75.773
X16.592 Y75.809
X17.054 Y76.031
X17.118 Y76.061
X17.587 Y76.27
X17.645 Y76.295
X18.12 Y76.493
X18.186 Y76.52
X19.15 Y76.889
X19.173 Y76.898
X20.107 Y77.246
X20.5 Y77.405
X20.843 Y77.563
X21.164 Y77.736
X21.279 Y77.807
X21.402 Y77.891
X21.517 Y77.976
X21.625 Y78.065
X21.728 Y78.158
X21.826 Y78.255
X21.92 Y78.358
X22.011 Y78.468
X22.1 Y78.584
X22.183 Y78.706
X22.265 Y78.836
X22.335 Y78.959
X22.504 Y79.297
X22.664 Y79.664
X22.828 Y80.087
X23.183 Y81.045
X23.2 Y81.089
X23.58 Y82.058
X23.611 Y82.133
X23.816 Y82.61
X23.844 Y82.673
X24.062 Y83.143
X24.095 Y83.211
X24.327 Y83.674
X24.365 Y83.747
X24.612 Y84.203
X24.655 Y84.279
X24.918 Y84.727
X24.965 Y84.803
X25.245 Y85.242
X25.295 Y85.318
X25.593 Y85.749
X25.646 Y85.824
X25.961 Y86.246
X26.019 Y86.32
X26.35 Y86.731
X26.41 Y86.803
X26.755 Y87.199
X26.817 Y87.268
X27.175 Y87.65
X27.24 Y87.717
X27.612 Y88.085
X27.678 Y88.149
X28.062 Y88.502
X28.131 Y88.563
X28.528 Y88.902
X28.599 Y88.96
X29.009 Y89.285
X29.082 Y89.341
X29.505 Y89.651
X29.58 Y89.704
X30.016 Y90
X30.093 Y90.05
X30.541 Y90.33
X30.619 Y90.378
X31.075 Y90.64
X31.155 Y90.685
X31.618 Y90.93
X31.699 Y90.97
X32.169 Y91.198
X32.252 Y91.236
X32.73 Y91.446
X32.814 Y91.48
X33.299 Y91.673
X33.384 Y91.705
X33.876 Y91.88
X33.962 Y91.908
X34.462 Y92.066
X34.55 Y92.092
X35.057 Y92.231
X35.146 Y92.254
X35.66 Y92.375
X35.75 Y92.395
X36.267 Y92.497
X36.357 Y92.513
X36.874 Y92.595
X36.966 Y92.608
X37.484 Y92.671
X37.576 Y92.681
X38.096 Y92.725
X38.188 Y92.731
X38.709 Y92.756
X38.801 Y92.759
X39.323 Y92.764
X39.416
X39.94 Y92.75
X40.032 Y92.746
X40.557 Y92.712
X40.651 Y92.705
X41.175 Y92.652
X41.268 Y92.64
X41.79 Y92.568
X41.882 Y92.553
X42.399 Y92.461
X42.489 Y92.444
X43.001 Y92.333
X43.088 Y92.313
X43.595 Y92.185
X43.68 Y92.162
X44.182 Y92.015
X44.262 Y91.991
X44.759 Y91.828
X44.832 Y91.802
X45.325 Y91.624
X45.391 Y91.599
X45.879 Y91.406
X45.957 Y91.374
X46.925 Y90.953
X46.972 Y90.932
X47.914 Y90.499
X48.337 Y90.313
X48.717 Y90.162
X49.086 Y90.039
X49.226 Y90.001
X49.38 Y89.966
X49.529 Y89.939
X49.675 Y89.919
X49.818 Y89.907
X49.959 Y89.901
X50.1 Y89.903
X50.242 Y89.911
X50.387 Y89.927
X50.536 Y89.95
X50.687 Y89.98
X50.821 Y90.014
X51.179 Y90.125
X51.546 Y90.264
X51.955 Y90.44
X52.889 Y90.869
X52.923 Y90.884
X53.889 Y91.309
X53.961 Y91.34
X54.449 Y91.537
X54.512 Y91.562
X55.004 Y91.745
X55.075 Y91.77
X55.571 Y91.938
X55.65 Y91.963
X56.152 Y92.115
X56.236 Y92.138
X56.744 Y92.272
X56.831 Y92.294
X57.344 Y92.41
X57.433 Y92.428
X57.952 Y92.526
X58.044 Y92.541
X58.569 Y92.62
X58.663 Y92.632
X59.193 Y92.691
X59.286 Y92.699
X59.818 Y92.738
X59.913 Y92.743
X60.442 Y92.762
X60.536 Y92.763
X61.064 Y92.762
X61.158 Y92.76
X61.685 Y92.739
X61.778 Y92.733
X62.303 Y92.693
X62.396 Y92.684
X62.921 Y92.623
X63.012 Y92.611
X63.535 Y92.531
X63.627 Y92.516
X64.149 Y92.416
X64.24 Y92.397
X64.759 Y92.277
X64.848 Y92.255
X65.363 Y92.117
X65.452 Y92.091
X65.959 Y91.934
X66.046 Y91.906
X66.545 Y91.731
X66.631 Y91.699
X67.123 Y91.507
X67.207 Y91.472
X67.691 Y91.262
X67.774 Y91.224
X68.251 Y90.996
X68.332 Y90.955
X68.801 Y90.709
X68.882 Y90.664
X69.343 Y90.401
X69.422 Y90.353
X69.875 Y90.071
X69.953 Y90.02
X70.394 Y89.722
X70.47 Y89.669
X70.898 Y89.356
X70.971 Y89.3
X71.386 Y88.973
X71.458 Y88.914
X71.86 Y88.572
X71.93 Y88.509
X72.318 Y88.153
X72.386 Y88.088
X72.761 Y87.717
X72.827 Y87.649
X73.188 Y87.263
X73.251 Y87.193
X73.599 Y86.792
X73.659 Y86.721
X73.993 Y86.305
X74.051 Y86.23
X74.369 Y85.802
X74.423 Y85.726
X74.724 Y85.289
X74.775 Y85.212
X75.059 Y84.764
X75.106 Y84.687
X75.372 Y84.231
X75.416 Y84.154
X75.666 Y83.689
X75.704 Y83.614
X75.939 Y83.141
X75.972 Y83.072
X76.193 Y82.59
X76.22 Y82.528
X76.428 Y82.039
X76.458 Y81.966
X76.844 Y80.973
X76.857 Y80.938
X77.217 Y79.967
X77.383 Y79.552
X77.546 Y79.191
X77.724 Y78.856
X77.797 Y78.736
X77.883 Y78.608
X77.971 Y78.489
X78.063 Y78.377
X78.159 Y78.271
X78.259 Y78.17
X78.366 Y78.073
X78.48 Y77.979
X78.601 Y77.889
X78.728 Y77.803
X78.864 Y77.719
X78.993 Y77.647
X79.348 Y77.472
X79.737 Y77.307
X80.186 Y77.135
X81.181 Y76.766
X81.215 Y76.753
X81.716 Y76.559
X81.763 Y76.54
X82.259 Y76.336
X82.32 Y76.311
X82.81 Y76.094
X82.877 Y76.063
X83.359 Y75.833
X83.432 Y75.797
X83.906 Y75.551
X83.983 Y75.51
X84.449 Y75.247
X84.528 Y75.201
X84.986 Y74.921
X85.065 Y74.871
X85.513 Y74.573
X85.59 Y74.519
X86.029 Y74.203
X86.107 Y74.145
X86.536 Y73.81
X86.611 Y73.749
X87.028 Y73.397
X87.101 Y73.332
X87.503 Y72.966
X87.572 Y72.9
X87.958 Y72.52
X88.025 Y72.451
X88.394 Y72.057
X88.458 Y71.986
X88.812 Y71.579
X88.874 Y71.506
X89.212 Y71.085
X89.27 Y71.01
X89.593 Y70.576
X89.648 Y70.498
X89.956 Y70.051
X90.008 Y69.971
X90.3 Y69.51
X90.349 Y69.428
X90.623 Y68.956
X90.669 Y68.874
X90.923 Y68.394
X90.966 Y68.309
X91.201 Y67.822
X91.24 Y67.737
X91.457 Y67.242
X91.493 Y67.156
X91.691 Y66.653
X91.724 Y66.565
X91.902 Y66.055
X91.932 Y65.966
X92.092 Y65.449
X92.118 Y65.357
X92.259 Y64.832
X92.282 Y64.741
X92.403 Y64.209
X92.422 Y64.116
X92.523 Y63.58
X92.539 Y63.486
X92.619 Y62.949
X92.632 Y62.854
X92.691 Y62.317
X92.7 Y62.222
X92.739 Y61.683
X92.744 Y61.588
X92.762 Y61.049
X92.763 Y60.953
X92.761 Y60.413
X92.759 Y60.317
X92.735 Y59.776
X92.729 Y59.68
X92.685 Y59.138
X92.675 Y59.042
X92.61 Y58.5
X92.596 Y58.404
X92.51 Y57.865
X92.493 Y57.771
X92.387 Y57.238
X92.367 Y57.147
X92.241 Y56.62
X92.218 Y56.531
X92.073 Y56.01
X92.048 Y55.926
X91.885 Y55.41
X91.858 Y55.33
X91.677 Y54.82
X91.651 Y54.749
X91.455 Y54.243
X91.431 Y54.184
X91.221 Y53.682
X91.201 Y53.636
X90.981 Y53.137
X90.966 Y53.104
X90.518 Y52.127
X90.322 Y51.686
X90.165 Y51.292
X90.038 Y50.912
X89.999 Y50.768
X89.963 Y50.609
X89.936 Y50.453
X89.916 Y50.3
X89.905 Y50.149
X89.901 Y49.997
X89.904 Y49.869
X89.913 Y49.738
X89.928 Y49.604
X89.946 Y49.491
X90.014 Y49.181
X90.105 Y48.878
X90.228 Y48.543
X90.382 Y48.175
X90.777 Y47.311
X90.783 Y47.296
X91.188 Y46.394
X91.211 Y46.341
X91.403 Y45.886
X91.424 Y45.833
X91.605 Y45.375
X91.629 Y45.311
X91.797 Y44.849
X91.821 Y44.78
X91.974 Y44.313
X91.998 Y44.239
X92.137 Y43.767
X92.159 Y43.689
X92.283 Y43.213
X92.303 Y43.131
X92.411 Y42.649
X92.428 Y42.565
X92.52 Y42.079
X92.535 Y41.992
X92.61 Y41.501
X92.622 Y41.413
X92.68 Y40.916
X92.688 Y40.827
X92.729 Y40.326
X92.735 Y40.237
X92.757 Y39.736
X92.759 Y39.647
X92.764 Y39.147
X92.763 Y39.06
X92.75 Y38.562
X92.747 Y38.474
X92.716 Y37.978
X92.709 Y37.89
X92.662 Y37.396
X92.652 Y37.309
X92.586 Y36.816
X92.574 Y36.73
X92.491 Y36.238
X92.475 Y36.152
X92.375 Y35.661
X92.356 Y35.576
X92.239 Y35.088
X92.217 Y35.004
X92.082 Y34.52
X92.058 Y34.436
X91.907 Y33.959
X91.879 Y33.876
X91.713 Y33.406
X91.682 Y33.325
X91.5 Y32.862
X91.467 Y32.782
X91.269 Y32.326
X91.233 Y32.247
X91.02 Y31.799
X90.981 Y31.721
X90.752 Y31.279
X90.711 Y31.203
X90.465 Y30.768
X90.421 Y30.693
X90.16 Y30.265
X90.113 Y30.192
X89.836 Y29.772
X89.787 Y29.7
X89.496 Y29.291
X89.445 Y29.221
X89.141 Y28.825
X89.086 Y28.755
X88.77 Y28.37
X88.713 Y28.304
X88.384 Y27.931
X88.324 Y27.865
X87.982 Y27.505
X87.92 Y27.442
X87.565 Y27.094
X87.501 Y27.033
X87.134 Y26.697
X87.068 Y26.638
X86.688 Y26.315
X86.619 Y26.258
X86.226 Y25.946
X86.155 Y25.892
X85.75 Y25.594
X85.678 Y25.543
X85.265 Y25.26
X85.192 Y25.212
X84.77 Y24.945
X84.697 Y24.901
X84.268 Y24.649
X84.196 Y24.608
X83.759 Y24.371
X83.69 Y24.335
X83.247 Y24.112
X83.18 Y24.08
X82.731 Y23.87
X82.668 Y23.842
X82.212 Y23.644
X82.159 Y23.622
X81.698 Y23.435
X81.644 Y23.414
X80.712 Y23.06
X80.701 Y23.056
X79.806 Y22.721
X79.441 Y22.57
X79.118 Y22.418
X78.817 Y22.253
X78.71 Y22.186
X78.592 Y22.106
X78.481 Y22.022
X78.375 Y21.935
X78.273 Y21.844
X78.177 Y21.748
X78.085 Y21.649
X77.998 Y21.545
X77.914 Y21.436
X77.847 Y21.34
X77.675 Y21.058
X77.52 Y20.757
X77.365 Y20.407
X77.207 Y20.006
X76.861 Y19.075
X76.849 Y19.041
X76.481 Y18.093
X76.454 Y18.026
X76.258 Y17.559
X76.232 Y17.501
X76.025 Y17.04
X75.992 Y16.971
X75.771 Y16.517
X75.735 Y16.447
X75.5 Y16.001
X75.461 Y15.929
X75.211 Y15.491
X75.168 Y15.419
X74.903 Y14.989
X74.856 Y14.916
X74.576 Y14.494
X74.526 Y14.422
X74.23 Y14.009
X74.177 Y13.937
X73.865 Y13.533
X73.807 Y13.461
X73.478 Y13.066
X73.418 Y12.997
X73.072 Y12.611
X73.009 Y12.544
X72.646 Y12.169
X72.581 Y12.104
X72.205 Y11.742
X72.137 Y11.68
X71.75 Y11.334
X71.681 Y11.275
X71.283 Y10.945
X71.211 Y10.888
X70.802 Y10.573
X70.729 Y10.519
X70.309 Y10.219
X70.234 Y10.168
X69.803 Y9.883
X69.727 Y9.835
X69.285 Y9.566
X69.207 Y9.52
X68.754 Y9.266
X68.674 Y9.223
X68.21 Y8.985
X68.129 Y8.945
X67.656 Y8.723
X67.573 Y8.686
X67.095 Y8.483
X67.012 Y8.449
X66.528 Y8.263
X66.443 Y8.232
X65.955 Y8.065
X65.87 Y8.037
X65.376 Y7.887
X65.289 Y7.863
X64.789 Y7.73
X64.703 Y7.709
X64.198 Y7.595
X64.109 Y7.576
X63.599 Y7.48
X63.509 Y7.465
X62.994 Y7.387
X62.903 Y7.375
X62.384 Y7.316
X62.293 Y7.307
X61.774 Y7.267
X61.682 Y7.262
X61.164 Y7.241
X61.073 Y7.239
X60.556 Y7.237
X60.464 Y7.239
X59.948 Y7.256
X59.857 Y7.26
X59.342 Y7.296
X59.25 Y7.305
X58.737 Y7.36
X58.646 Y7.371
X58.133 Y7.445
X58.042 Y7.46
X57.53 Y7.553
X57.441 Y7.571
X56.931 Y7.683
X56.845 Y7.704
X56.339 Y7.834
X56.255 Y7.857
X55.755 Y8.004
X55.675 Y8.03
X55.181 Y8.193
X55.108 Y8.219
X54.62 Y8.398
X54.556 Y8.422
X54.073 Y8.614
X54.019 Y8.637
X53.539 Y8.84
X53.489 Y8.863
X51.64 Y9.697
X51.279 Y9.84
X50.916 Y9.96
X50.776 Y9.998
X50.623 Y10.033
X50.476 Y10.061
X50.333 Y10.08
X50.188 Y10.093
X50.044 Y10.099
X49.901 Y10.098
X49.758 Y10.089
X49.615 Y10.074
X49.468 Y10.051
X49.317 Y10.021
X49.182 Y9.988
X48.818 Y9.875
X48.442 Y9.732
X48.023 Y9.551
X47.558 Y9.338
X47.551 Y9.335
X46.571 Y8.89
X46.523 Y8.869
X46.029 Y8.657
X45.974 Y8.634
X45.477 Y8.435
X45.408 Y8.408
X44.905 Y8.224
X44.831 Y8.198
X44.323 Y8.029
X44.242 Y8.004
X43.729 Y7.852
X43.642 Y7.829
X43.122 Y7.696
X43.032 Y7.674
X42.506 Y7.56
X42.414 Y7.542
X41.881 Y7.447
X41.787 Y7.432
X41.247 Y7.358
X41.151 Y7.346
X40.607 Y7.292
X40.511 Y7.284
X39.967 Y7.252
X39.871 Y7.248
X39.328 Y7.236
X39.232 Y7.235
X38.69 Y7.244
X38.594 Y7.248
X38.054 Y7.278
X37.958 Y7.285
X37.42 Y7.335
X37.324 Y7.346
X36.788 Y7.417
X36.693 Y7.432
X36.158 Y7.524
X36.066 Y7.541
X35.532 Y7.654
X35.439 Y7.675
X34.909 Y7.808
X34.817 Y7.833
X34.294 Y7.986
X34.203 Y8.014
X33.689 Y8.186
X33.6 Y8.217
X33.093 Y8.407
X33.006 Y8.442
X32.507 Y8.651
X32.421 Y8.689
X31.931 Y8.916
X31.846 Y8.957
X31.364 Y9.203
X31.28 Y9.248
X30.806 Y9.513
X30.724 Y9.561
X30.257 Y9.845
X30.177 Y9.896
X29.721 Y10.198
X29.643 Y10.253
X29.201 Y10.571
X29.125 Y10.628
X28.697 Y10.961
X28.623 Y11.021
X28.209 Y11.37
X28.137 Y11.432
X27.738 Y11.796
X27.668 Y11.862
X27.282 Y12.241
X27.215 Y12.31
X26.843 Y12.704
X26.778 Y12.775
X26.421 Y13.185
X26.359 Y13.259
X26.016 Y13.685
X25.971 Y13.742
G3 X25.41 Y13.819 I-0.319 J-0.242
G1 X25.092 Y13.577
X25.029 Y13.53 Z-3.992
X24.97 Y13.485 Z-3.97
X24.915 Y13.443 Z-3.933
X24.866 Y13.406 Z-3.883
X24.827 Y13.376 Z-3.822
X24.797 Y13.354 Z-3.753
X24.779 Y13.34 Z-3.678
X24.773 Y13.335 Z-3.6
G0 Z5
X25.257 Y12.698
G1 Z-2 F100
Z-4.6
X25.263 Y12.703 Z-4.678
X25.281 Y12.717 Z-4.753
X25.31 Y12.739 Z-4.822
X25.35 Y12.769 Z-4.883
X25.398 Y12.806 Z-4.933
X25.453 Y12.847 Z-4.97
X25.513 Y12.893 Z-4.992
X25.575 Y12.94 Z-5
X25.894 Y13.182
G3 X25.971 Y13.742 I-0.242 J0.319
G1 X25.957 Y13.761
X25.631 Y14.199
X25.575 Y14.277
X25.266 Y14.726
X25.213 Y14.807
X24.923 Y15.266
X24.876 Y15.344
X24.603 Y15.813
X24.56 Y15.891
X24.305 Y16.369
X24.266 Y16.444
X24.027 Y16.931
X23.993 Y17.003
X23.769 Y17.498
X23.741 Y17.561
X23.531 Y18.063
X23.503 Y18.131
X23.111 Y19.15
X23.101 Y19.176
X22.735 Y20.159
X22.568 Y20.564
X22.389 Y20.94
X22.314 Y21.079
X22.227 Y21.225
X22.139 Y21.36
X22.049 Y21.484
X21.956 Y21.6
X21.859 Y21.71
X21.757 Y21.815
X21.648 Y21.915
X21.533 Y22.012
X21.41 Y22.104
X21.28 Y22.193
X21.141 Y22.278
X20.992 Y22.362
X20.844 Y22.438
X20.451 Y22.616
X20.02 Y22.788
X19.529 Y22.971
X19.525 Y22.973
X18.492 Y23.36
X18.437 Y23.381
X17.926 Y23.587
X17.869 Y23.61
X17.365 Y23.828
X17.299 Y23.857
X16.802 Y24.089
X16.729 Y24.124
X16.24 Y24.372
X16.161 Y24.413
X15.681 Y24.678
X15.601 Y24.724
X15.13 Y25.007
X15.05 Y25.057
X14.589 Y25.359
X14.509 Y25.413
X14.057 Y25.734
X13.978 Y25.792
X13.536 Y26.133
X13.459 Y26.195
X13.029 Y26.554
X12.954 Y26.62
X12.539 Y26.995
X12.467 Y27.063
X12.07 Y27.453
X12.001 Y27.523
X11.621 Y27.927
X11.555 Y28
X11.191 Y28.418
X11.128 Y28.493
X10.781 Y28.925
