(cycloid_1)
(T1  D=4 CR=0 - ZMIN=-6 - flat end mill)
G90 G94
G17
G21
G28 G91 Z10
G90

(Drill3)
T1
S12000 M3
G54
M8
G0 X38.52 Y77.717
Z30
Z15
G1 Z-6 F50
G0 Z15
X77.716 Y61.481
G1 Z-6 F50
G0 Z15
X61.481 Y22.284
G1 Z-6 F50
G0 Z15
X22.284 Y38.52
G1 Z-6 F50
G0 Z15
Z30
M9
G28 G91 Z0
G90
G28 G91 X0 Y0
G90
M5
M30
